;FLAVOR:Marlin
;TIME:927
;Filament used: 0.682305m
;Layer height: 0.2
;MINX:93.482
;MINY:93.497
;MINZ:0.25
;MAXX:126.518
;MAXY:126.504
;MAXZ:11.05
;Generated with Cura_SteamEngine 4.12.1
M140 S60
M105
M190 S60
M104 S200
M105
M109 S200
M82 ;absolute extrusion mode
; Ender 3 Custom Start G-code
G92 E0 ; Reset Extruder
G28 ; Home all axes
G1 Z2.0 F3000 ; Move Z Axis up little to prevent scratching of Heat Bed
G1 X0.1 Y20 Z0.3 F5000.0 ; Move to start position
G1 X0.1 Y200.0 Z0.3 F1500.0 E15 ; Draw the first line
G1 X0.4 Y200.0 Z0.3 F5000.0 ; Move to side a little
G1 X0.4 Y20 Z0.3 F1500.0 E30 ; Draw the second line
G92 E0 ; Reset Extruder
G1 Z2.0 F3000 ; Move Z Axis up little to prevent scratching of Heat Bed
G1 X5 Y20 Z0.3 F5000.0 ; Move over to prevent blob squish
G92 E0
G92 E0
G1 F1500 E-6.5
;LAYER_COUNT:55
;LAYER:0
M107
G1 F300 Z0.75
G0 F3000 X98.307 Y98.311 Z0.75
;TYPE:SKIRT
G1 F300 Z0.25
G1 F1500 E0
G1 F1200 X98.695 Y97.957 E0.03275
G1 X99.531 Y97.238 E0.10152
G1 X100.001 Y96.845 E0.13973
G1 X100.311 Y96.609 E0.16402
G1 X100.662 Y96.366 E0.19065
G1 X100.885 Y96.221 E0.20723
G1 X101.189 Y96.038 E0.22936
G1 X101.973 Y95.576 E0.28611
G1 X102.525 Y95.26 E0.32578
G1 X103.082 Y94.992 E0.36433
G1 X104.241 Y94.536 E0.442
G1 X104.63 Y94.391 E0.46789
G1 X105.302 Y94.153 E0.51235
G1 X105.903 Y93.988 E0.55121
G1 X106.925 Y93.786 E0.61618
G1 X107.495 Y93.684 E0.65229
G1 X108.17 Y93.573 E0.69495
G1 X108.668 Y93.521 E0.72618
G1 X108.976 Y93.508 E0.7454
G1 X109.702 Y93.498 E0.79068
G1 X110.459 Y93.497 E0.83789
G1 X111.046 Y93.505 E0.8745
G1 X111.554 Y93.543 E0.90627
G1 X112.035 Y93.607 E0.93653
G1 X112.182 Y93.629 E0.9458
G1 X112.525 Y93.687 E0.96749
G1 X113.35 Y93.836 E1.01978
G1 X114.007 Y93.965 E1.06153
G1 X114.599 Y94.125 E1.09977
G1 X115.562 Y94.463 E1.16342
G1 X116.109 Y94.667 E1.19983
G1 X116.769 Y94.922 E1.24395
G1 X117.335 Y95.189 E1.28298
G1 X118.172 Y95.662 E1.34294
G1 X118.714 Y95.982 E1.38219
G1 X119.322 Y96.351 E1.42654
G1 X119.837 Y96.718 E1.46598
G1 X120.646 Y97.39 E1.53157
G1 X121.112 Y97.793 E1.56999
G1 X121.595 Y98.221 E1.61023
G1 X122.033 Y98.67 E1.64935
G1 X122.712 Y99.477 E1.71512
G1 X123.085 Y99.937 E1.75205
G1 X123.493 Y100.453 E1.79308
G1 X123.847 Y100.975 E1.83241
G1 X124.368 Y101.882 E1.89764
G1 X124.638 Y102.372 E1.93253
G1 X124.995 Y103.043 E1.97993
G1 X125.225 Y103.553 E2.01482
G1 X125.348 Y103.881 E2.03667
G1 X125.395 Y104.012 E2.04534
G1 X125.757 Y105.084 E2.11591
G1 X125.991 Y105.813 E2.16365
G1 X126.122 Y106.329 E2.19685
G1 X126.17 Y106.589 E2.21334
G1 X126.249 Y107.082 E2.24448
G1 X126.379 Y107.952 E2.29934
G1 X126.478 Y108.678 E2.34503
G1 X126.517 Y109.256 E2.38116
G1 X126.518 Y110.731 E2.47314
G1 X126.49 Y111.22 E2.50369
G1 X126.459 Y111.489 E2.52058
G1 X126.404 Y111.883 E2.54539
G1 X126.262 Y112.834 E2.60535
G1 X126.2 Y113.21 E2.62911
G1 X126.171 Y113.367 E2.63907
G1 X126.063 Y113.898 E2.67286
G1 X125.937 Y114.375 E2.70363
G1 X125.782 Y114.849 E2.73473
G1 X125.508 Y115.659 E2.78806
G1 X125.285 Y116.291 E2.82985
G1 X125.036 Y116.86 E2.86859
G1 X124.459 Y117.958 E2.94594
G1 X124.281 Y118.28 E2.96888
G1 X123.923 Y118.908 E3.01396
G1 X123.58 Y119.42 E3.0524
G1 X122.83 Y120.381 E3.12842
G1 X122.577 Y120.69 E3.15332
G1 X122.097 Y121.263 E3.19994
G1 X121.668 Y121.707 E3.23844
G1 X120.897 Y122.395 E3.30288
G1 X120.446 Y122.783 E3.33998
G1 X119.995 Y123.162 E3.37672
G1 X119.778 Y123.333 E3.39395
G1 X119.634 Y123.439 E3.4051
G1 X119.323 Y123.648 E3.42847
G1 X118.658 Y124.053 E3.47703
G1 X118.032 Y124.421 E3.52231
G1 X117.461 Y124.747 E3.56332
G1 X117.205 Y124.883 E3.58139
G1 X116.824 Y125.053 E3.60741
G1 X115.948 Y125.395 E3.66606
G1 X115.36 Y125.613 E3.70517
G1 X114.728 Y125.838 E3.747
G1 X114.398 Y125.941 E3.76856
G1 X114.327 Y125.96 E3.77314
G1 X114.05 Y126.024 E3.79087
G1 X113.149 Y126.202 E3.84815
G1 X112.5 Y126.317 E3.88925
G1 X111.871 Y126.421 E3.92901
G1 X111.608 Y126.457 E3.94557
G1 X111.481 Y126.47 E3.95353
G1 X111.108 Y126.492 E3.97683
G1 X110.321 Y126.503 E4.02591
G1 X109.565 Y126.504 E4.07306
G1 X108.951 Y126.495 E4.11135
G1 X108.698 Y126.483 E4.12715
G1 X108.576 Y126.474 E4.13478
G1 X108.202 Y126.43 E4.15826
G1 X107.316 Y126.286 E4.21424
G1 X106.662 Y126.168 E4.25569
G1 X106.106 Y126.06 E4.29101
G1 X105.846 Y126.001 E4.30763
G1 X105.607 Y125.939 E4.32303
G1 X105.253 Y125.831 E4.34611
G1 X104.608 Y125.602 E4.3888
G1 X103.9 Y125.339 E4.4359
G1 X103.264 Y125.092 E4.47845
G1 X102.715 Y124.833 E4.5163
G1 X101.615 Y124.214 E4.59502
G1 X101.33 Y124.045 E4.61568
G1 X100.624 Y123.613 E4.6673
G1 X100.114 Y123.247 E4.70644
G1 X99.442 Y122.686 E4.76104
G1 X98.863 Y122.187 E4.8087
G1 X98.414 Y121.789 E4.84612
G1 X97.978 Y121.342 E4.88506
G1 X97.255 Y120.483 E4.95508
G1 X97.001 Y120.17 E4.98022
G1 X96.462 Y119.484 E5.03463
G1 X96.109 Y118.96 E5.07403
G1 X95.694 Y118.231 E5.12634
G1 X95.508 Y117.892 E5.15045
G1 X94.96 Y116.848 E5.22399
G1 X94.713 Y116.283 E5.26244
G1 X94.493 Y115.658 E5.30376
G1 X94.247 Y114.928 E5.3518
G1 X94.004 Y114.167 E5.40162
G1 X93.875 Y113.66 E5.43425
G1 X93.819 Y113.353 E5.45371
G1 X93.765 Y113.005 E5.47567
G1 X93.621 Y112.045 E5.53621
G1 X93.521 Y111.308 E5.58259
G1 X93.482 Y110.727 E5.6189
G1 X93.483 Y109.256 E5.71064
G1 X93.511 Y108.773 E5.74081
G1 X93.537 Y108.55 E5.75481
G1 X93.608 Y108.038 E5.78705
G1 X93.745 Y107.128 E5.84444
G1 X93.853 Y106.467 E5.88621
G1 X94 Y105.856 E5.9254
G1 X94.327 Y104.83 E5.99255
G1 X94.504 Y104.309 E6.02687
G1 X94.723 Y103.689 E6.06787
G1 X94.873 Y103.319 E6.09277
G1 X95.022 Y103.012 E6.11405
G1 X95.453 Y102.203 E6.17122
G1 X95.754 Y101.659 E6.20999
G1 X96.093 Y101.064 E6.25269
G1 X96.446 Y100.539 E6.29215
G1 X97.101 Y99.705 E6.35828
G1 X97.432 Y99.298 E6.391
G1 X97.917 Y98.719 E6.4381
G1 X98.307 Y98.311 E6.4733
G1 F1500 E-0.0267
G1 F300 Z0.75
;MESH:arandela.stl
G0 F3000 X108.995 Y121.304 Z0.75
;TYPE:WALL-INNER
G1 F300 Z0.25
G1 F1500 E6.4733
G1 F1200 X107.018 Y120.949 E6.59856
G1 X105.126 Y120.248 E6.72439
G1 X103.38 Y119.216 E6.85087
G1 X101.855 Y117.901 E6.97645
G1 X100.587 Y116.335 E7.10211
G1 X99.616 Y114.577 E7.22736
G1 X98.972 Y112.672 E7.35276
G1 X98.817 Y111.635 E7.41815
G1 X99.85 Y111.635 E7.48257
G1 X100.053 Y112.768 E7.55435
G1 X100.096 Y112.91 E7.56361
G1 X100.799 Y114.687 E7.68278
G1 X100.872 Y114.819 E7.69219
G1 X101.907 Y116.415 E7.81082
G1 X102.005 Y116.529 E7.82019
G1 X103.338 Y117.892 E7.93908
G1 X103.458 Y117.983 E7.94848
G1 X105.028 Y119.049 E8.06682
G1 X105.162 Y119.117 E8.07619
G1 X106.925 Y119.858 E8.19545
G1 X107.07 Y119.894 E8.20477
G1 X108.928 Y120.27 E8.32299
G1 X109.078 Y120.28 E8.33237
G1 X110.996 Y120.281 E8.45198
G1 X111.144 Y120.256 E8.46134
G1 X113.003 Y119.88 E8.57962
G1 X113.144 Y119.829 E8.58897
G1 X114.904 Y119.089 E8.70803
G1 X115.031 Y119.009 E8.71739
G1 X116.618 Y117.931 E8.83704
G1 X118.048 Y116.474 E8.96435
G1 X118.133 Y116.351 E8.97368
G1 X119.171 Y114.752 E9.09256
G1 X119.229 Y114.613 E9.10195
G1 X119.933 Y112.834 E9.22127
G1 X120.149 Y111.635 E9.29725
G1 X121.184 Y111.635 E9.36179
G1 X121.027 Y112.68 E9.42769
G1 X120.395 Y114.552 E9.55091
G1 X120.384 Y114.579 E9.55273
G1 X119.411 Y116.341 E9.67825
G1 X118.136 Y117.911 E9.80438
G1 X116.614 Y119.221 E9.92961
G1 X114.87 Y120.249 E10.05586
G1 X112.989 Y120.947 E10.18098
G1 X111.006 Y121.303 E10.30662
G1 X108.995 Y121.304 E10.43204
G0 F3000 X108.966 Y121.904
;TYPE:WALL-OUTER
G1 F1200 X108.917 Y121.9 E10.4351
G1 X106.882 Y121.535 E10.56403
G1 X106.832 Y121.521 E10.56727
G1 X104.887 Y120.8 E10.69663
G1 X104.853 Y120.784 E10.69898
G1 X103.031 Y119.707 E10.83097
G1 X101.422 Y118.319 E10.96349
G1 X100.088 Y116.673 E11.09561
G1 X99.08 Y114.847 E11.22569
G1 X99.063 Y114.813 E11.22806
G1 X98.398 Y112.847 E11.35749
G1 X98.385 Y112.802 E11.36041
G1 X98.121 Y111.035 E11.47183
G1 X100.352 Y111.035 E11.61096
G1 X100.637 Y112.627 E11.71182
G1 X100.663 Y112.712 E11.71736
G1 X101.342 Y114.43 E11.83256
G1 X101.386 Y114.509 E11.8382
G1 X102.389 Y116.055 E11.95313
G1 X102.448 Y116.124 E11.95879
G1 X103.737 Y117.441 E12.07371
G1 X103.809 Y117.496 E12.07936
G1 X105.333 Y118.531 E12.19425
G1 X105.414 Y118.572 E12.19991
G1 X107.116 Y119.287 E12.31504
G1 X107.203 Y119.309 E12.32064
G1 X109.008 Y119.674 E12.43548
G1 X109.098 Y119.68 E12.4411
G1 X110.946 Y119.681 E12.55635
G1 X111.035 Y119.666 E12.56198
G1 X112.84 Y119.301 E12.67682
G1 X112.925 Y119.27 E12.68246
G1 X114.626 Y118.555 E12.79753
G1 X114.702 Y118.507 E12.80314
G1 X116.232 Y117.468 E12.91848
G1 X117.583 Y116.091 E13.03878
G1 X117.634 Y116.017 E13.04438
G1 X118.638 Y114.471 E13.15934
G1 X118.673 Y114.387 E13.16502
G1 X119.353 Y112.669 E13.28024
G1 X119.647 Y111.035 E13.38378
G1 X121.88 Y111.035 E13.52304
G1 X121.616 Y112.796 E13.63409
G1 X121.608 Y112.834 E13.63651
G1 X120.95 Y114.781 E13.76467
G1 X120.924 Y114.842 E13.76881
G1 X119.924 Y116.653 E13.89782
G1 X119.895 Y116.697 E13.90111
G1 X118.591 Y118.304 E14.03017
G1 X118.555 Y118.342 E14.03343
G1 X116.983 Y119.695 E14.16278
G1 X116.941 Y119.725 E14.166
G1 X115.165 Y120.773 E14.2946
G1 X115.108 Y120.801 E14.29856
G1 X113.168 Y121.521 E14.42761
G1 X113.122 Y121.533 E14.43057
G1 X111.084 Y121.899 E14.5597
G1 X111.036 Y121.903 E14.5627
G1 X108.966 Y121.904 E14.69179
G0 F3000 X108.992 Y121.245
G0 X108.999 Y121.204
G0 X105.008 Y119.083
G0 X104.047 Y118.426
G0 X100.614 Y115.888
;TYPE:SKIN
G1 F1200 X104.072 Y119.346 E14.99677
G0 F3000 X104.668 Y119.093
G1 F1200 X105.826 Y120.251 E15.0989
G0 F3000 X106.264 Y119.84
G1 F1200 X107.152 Y120.729 E15.17726
G0 F3000 X107.497 Y120.225
G1 F1200 X108.186 Y120.914 E15.23803
G0 F3000 X108.559 Y120.439
G1 F1200 X109.182 Y121.062 E15.29297
G0 F3000 X109.489 Y120.519
G1 F1200 X110.031 Y121.062 E15.34082
G0 F3000 X110.338 Y120.52
G1 F1200 X110.88 Y121.062 E15.38862
G0 F3000 X111.162 Y120.495
G1 F1200 X111.615 Y120.949 E15.42861
G0 F3000 X111.868 Y120.353
G1 F1200 X112.334 Y120.819 E15.46971
G0 F3000 X112.574 Y120.211
G1 F1200 X113.036 Y120.673 E15.51046
G0 F3000 X113.654 Y120.442
G1 F1200 X113.255 Y120.043 E15.54565
G0 F3000 X113.851 Y119.791
G1 F1200 X114.273 Y120.213 E15.58286
G0 F3000 X114.875 Y119.966
G1 F1200 X114.449 Y119.54 E15.62044
G0 F3000 X115.042 Y119.284
G1 F1200 X115.409 Y119.651 E15.6528
G0 F3000 X115.942 Y119.336
G1 F1200 X115.551 Y118.945 E15.68729
G0 F3000 X116.056 Y118.601
G1 F1200 X116.476 Y119.021 E15.72433
G0 F3000 X116.932 Y118.629
G1 F1200 X116.56 Y118.257 E15.75714
G0 F3000 X117.016 Y117.864
G1 F1200 X117.388 Y118.237 E15.78999
G0 F3000 X117.845 Y117.845
G1 F1200 X117.437 Y117.437 E15.82597
G0 F3000 X117.857 Y117.008
G1 F1200 X118.245 Y117.396 E15.86019
G0 F3000 X118.625 Y116.928
G1 F1200 X118.269 Y116.572 E15.89159
G0 F3000 X118.606 Y116.06
G1 F1200 X119.005 Y116.459 E15.92678
G0 F3000 X119.349 Y115.954
G1 F1200 X118.94 Y115.546 E15.96281
G0 F3000 X119.274 Y115.032
G1 F1200 X119.651 Y115.409 E15.99605
G0 F3000 X119.953 Y114.862
G1 F1200 X119.547 Y114.456 E16.03186
G0 F3000 X119.788 Y113.848
G1 F1200 X120.23 Y114.29 E16.07084
G0 F3000 X120.444 Y113.656
G1 F1200 X120.028 Y113.24 E16.10753
G0 F3000 X120.658 Y113.021
G1 F1200 X120.22 Y112.584 E16.14612
G0 F3000 X120.833 Y112.348
G1 F1200 X120.36 Y111.874 E16.18788
G0 F3000 X119.206 Y114.77
G0 X118.078 Y116.499
G0 X116.643 Y117.961
G0 X114.922 Y119.124
G0 X113.013 Y119.918
G0 X110.999 Y120.32
G0 X108.923 Y120.309
G0 X106.913 Y119.895
G0 X105.008 Y119.083
G0 X103.312 Y117.922
G0 X102.498 Y117.082
G0 X100.943 Y115.368
G1 F1200 X99.723 Y114.148 E16.29547
G0 F3000 X100.168 Y113.745
G1 F1200 X99.29 Y112.866 E16.37295
G0 F3000 X99.759 Y112.487
G1 F1200 X99.146 Y111.874 E16.42702
G0 F3000 X99.505 Y112.182
G1 F1500 E9.92702
G1 F300 Z0.75
G0 F3000 X99.506 Y112.187 Z0.75
G0 X120.15 Y108.365
;TYPE:WALL-INNER
G1 F300 Z0.25
G1 F1500 E16.42702
G1 F1200 X119.934 Y107.167 E16.50293
G1 X119.23 Y105.388 E16.62225
G1 X119.172 Y105.249 E16.63164
G1 X118.057 Y103.535 E16.75916
G1 X116.619 Y102.07 E16.88717
G1 X115.032 Y100.992 E17.00682
G1 X114.905 Y100.912 E17.01618
G1 X113.145 Y100.172 E17.13524
G1 X113.004 Y100.121 E17.14459
G1 X111.145 Y99.745 E17.26287
G1 X110.997 Y99.72 E17.27223
G1 X109.079 Y99.719 E17.39185
G1 X108.929 Y99.729 E17.40122
G1 X107.071 Y100.105 E17.51944
G1 X106.926 Y100.141 E17.52876
G1 X105.163 Y100.882 E17.64802
G1 X105.029 Y100.95 E17.65739
G1 X103.459 Y102.016 E17.77574
G1 X103.339 Y102.107 E17.78513
G1 X102.006 Y103.47 E17.90402
G1 X101.908 Y103.584 E17.9134
G1 X100.873 Y105.18 E18.03202
G1 X100.8 Y105.312 E18.04143
G1 X100.089 Y107.108 E18.16189
G1 X100.031 Y107.364 E18.17826
G1 X99.851 Y108.365 E18.24169
G1 X98.817 Y108.365 E18.30617
G1 X98.976 Y107.311 E18.37264
G1 X99.615 Y105.422 E18.49701
G1 X100.592 Y103.655 E18.62292
G1 X101.857 Y102.097 E18.74808
G1 X103.384 Y100.783 E18.87371
G1 X105.121 Y99.756 E18.99955
G1 X107.015 Y99.053 E19.12554
G1 X108.986 Y98.699 E19.25042
G1 X111.008 Y98.697 E19.37652
G1 X112.982 Y99.052 E19.5016
G1 X114.877 Y99.755 E19.62765
G1 X116.61 Y100.777 E19.75312
G1 X118.138 Y102.093 E19.87888
G1 X119.408 Y103.658 E20.00457
G1 X120.38 Y105.417 E20.1299
G1 X121.023 Y107.313 E20.25475
G1 X121.182 Y108.365 E20.3211
G1 X120.15 Y108.365 E20.38546
G0 F3000 X119.648 Y108.965
;TYPE:WALL-OUTER
G1 F1200 X119.354 Y107.332 E20.48894
G1 X118.674 Y105.614 E20.60416
G1 X118.639 Y105.53 E20.60984
G1 X117.587 Y103.912 E20.73019
G1 X116.233 Y102.533 E20.85071
G1 X114.703 Y101.494 E20.96605
G1 X114.627 Y101.446 E20.97166
G1 X112.926 Y100.731 E21.08673
G1 X112.841 Y100.7 E21.09237
G1 X111.036 Y100.335 E21.20721
G1 X110.947 Y100.32 E21.21284
G1 X109.099 Y100.319 E21.32809
G1 X109.009 Y100.325 E21.33371
G1 X107.204 Y100.69 E21.44855
G1 X107.117 Y100.712 E21.45415
G1 X105.415 Y101.427 E21.56928
G1 X105.334 Y101.468 E21.57494
G1 X103.81 Y102.503 E21.68983
G1 X103.738 Y102.558 E21.69548
G1 X102.449 Y103.875 E21.8104
G1 X102.39 Y103.944 E21.81606
G1 X101.387 Y105.49 E21.93099
G1 X101.343 Y105.569 E21.93663
G1 X100.664 Y107.286 E22.05177
G1 X100.619 Y107.484 E22.06444
G1 X100.352 Y108.965 E22.15828
G1 X98.121 Y108.965 E22.29741
G1 X98.386 Y107.192 E22.40921
G1 X98.397 Y107.152 E22.4118
G1 X99.06 Y105.193 E22.54077
G1 X99.075 Y105.16 E22.54304
G1 X100.088 Y103.327 E22.67364
G1 X100.104 Y103.304 E22.67539
G1 X101.42 Y101.684 E22.80555
G1 X101.446 Y101.659 E22.8078
G1 X103.031 Y100.294 E22.93825
G1 X104.853 Y99.217 E23.07024
G1 X104.898 Y99.198 E23.07328
G1 X106.844 Y98.476 E23.20273
G1 X106.882 Y98.467 E23.20516
G1 X108.93 Y98.099 E23.33493
G1 X111.052 Y98.097 E23.46726
G1 X111.097 Y98.103 E23.47009
G1 X113.141 Y98.471 E23.59961
G1 X115.134 Y99.21 E23.73217
G1 X116.959 Y100.286 E23.86429
G1 X118.571 Y101.674 E23.99695
G1 X119.907 Y103.32 E24.12915
G1 X120.931 Y105.174 E24.26124
G1 X121.608 Y107.17 E24.39268
G1 X121.879 Y108.965 E24.50589
G1 X119.648 Y108.965 E24.64502
G0 F3000 X120.214 Y108.289
G0 X119.381 Y104.108
;TYPE:SKIN
G1 F1200 X115.923 Y100.65 E24.95
G0 F3000 X115.332 Y100.907
G1 F1200 X114.175 Y99.75 E25.05204
G0 F3000 X113.736 Y100.159
G1 F1200 X112.848 Y99.272 E25.13031
G0 F3000 X112.502 Y99.774
G1 F1200 X111.813 Y99.085 E25.19107
G0 F3000 X111.439 Y99.559
G1 F1200 X110.817 Y98.937 E25.24593
G0 F3000 X110.51 Y99.479
G1 F1200 X109.969 Y98.938 E25.29364
G0 F3000 X109.661 Y99.479
G1 F1200 X109.121 Y98.939 E25.34127
G0 F3000 X108.837 Y99.503
G1 F1200 X108.384 Y99.05 E25.38122
G0 F3000 X108.13 Y99.645
G1 F1200 X107.664 Y99.179 E25.42232
G0 F3000 X107.425 Y99.788
G1 F1200 X106.964 Y99.327 E25.46298
G0 F3000 X106.345 Y99.557
G1 F1200 X106.744 Y99.955 E25.49812
G0 F3000 X106.146 Y100.206
G1 F1200 X105.726 Y99.786 E25.53516
G0 F3000 X105.124 Y100.032
G1 F1200 X105.549 Y100.457 E25.57265
G0 F3000 X104.958 Y100.716
G1 F1200 X104.59 Y100.348 E25.6051
G0 F3000 X104.057 Y100.663
G1 F1200 X104.447 Y101.053 E25.6395
G0 F3000 X103.942 Y101.396
G1 F1200 X103.524 Y100.979 E25.67632
G0 F3000 X103.067 Y101.37
G1 F1200 X103.436 Y101.739 E25.70886
G0 F3000 X102.979 Y102.13
G1 F1200 X102.611 Y101.763 E25.74127
G0 F3000 X102.155 Y102.155
G1 F1200 X102.56 Y102.56 E25.77699
G0 F3000 X102.14 Y102.988
G1 F1200 X101.754 Y102.602 E25.81104
G0 F3000 X101.373 Y103.07
G1 F1200 X101.727 Y103.424 E25.84226
G0 F3000 X101.392 Y103.937
