;FLAVOR:Marlin
;TIME:1281
;Filament used: 1.02101m
;Layer height: 0.2
;MINX:92.182
;MINY:92.163
;MINZ:0.25
;MAXX:127.818
;MAXY:127.834
;MAXZ:14.05
;Generated with Cura_SteamEngine 4.12.1
M140 S60
M105
M190 S60
M104 S200
M105
M109 S200
M82 ;absolute extrusion mode
; Ender 3 Custom Start G-code
G92 E0 ; Reset Extruder
G28 ; Home all axes
G1 Z2.0 F3000 ; Move Z Axis up little to prevent scratching of Heat Bed
G1 X0.1 Y20 Z0.3 F5000.0 ; Move to start position
G1 X0.1 Y200.0 Z0.3 F1500.0 E15 ; Draw the first line
G1 X0.4 Y200.0 Z0.3 F5000.0 ; Move to side a little
G1 X0.4 Y20 Z0.3 F1500.0 E30 ; Draw the second line
G92 E0 ; Reset Extruder
G1 Z2.0 F3000 ; Move Z Axis up little to prevent scratching of Heat Bed
G1 X5 Y20 Z0.3 F5000.0 ; Move over to prevent blob squish
G92 E0
G92 E0
G1 F1500 E-6.5
;LAYER_COUNT:70
;LAYER:0
M107
G1 F300 Z0.75
G0 F3000 X97.216 Y97.561 Z0.75
;TYPE:SKIRT
G1 F300 Z0.25
G1 F1500 E0
G1 F1200 X97.674 Y97.109 E0.04013
G1 X97.819 Y96.973 E0.05253
G1 X98.355 Y96.491 E0.09748
G1 X98.512 Y96.356 E0.11039
G1 X98.952 Y95.997 E0.14581
G1 X99.225 Y95.786 E0.16733
G1 X99.805 Y95.365 E0.21202
G1 X99.965 Y95.255 E0.22413
G1 X100.53 Y94.885 E0.26625
G1 X100.726 Y94.765 E0.28058
G1 X101.27 Y94.447 E0.31988
G1 X101.445 Y94.35 E0.33235
G1 X102.035 Y94.041 E0.37389
G1 X102.218 Y93.951 E0.38661
G1 X102.792 Y93.686 E0.42603
G1 X103.15 Y93.534 E0.45029
G1 X103.657 Y93.33 E0.48437
G1 X103.854 Y93.256 E0.49749
G1 X104.457 Y93.047 E0.53729
G1 X104.655 Y92.984 E0.55025
G1 X105.404 Y92.766 E0.5989
G1 X105.605 Y92.715 E0.61183
G1 X106.222 Y92.569 E0.65137
G1 X106.426 Y92.525 E0.66438
G1 X107.077 Y92.404 E0.70568
G1 X107.284 Y92.371 E0.71875
G1 X107.895 Y92.288 E0.7572
G1 X108.207 Y92.254 E0.77678
G1 X108.83 Y92.201 E0.81577
G1 X109.035 Y92.189 E0.82857
G1 X109.752 Y92.164 E0.87332
G1 X109.966 Y92.163 E0.88666
G1 X110.646 Y92.174 E0.92907
G1 X110.865 Y92.184 E0.94275
G1 X111.501 Y92.226 E0.98249
G1 X111.715 Y92.246 E0.9959
G1 X112.411 Y92.327 E1.0396
G1 X112.615 Y92.356 E1.05245
G1 X113.314 Y92.473 E1.09664
G1 X113.474 Y92.505 E1.10682
G1 X114.096 Y92.64 E1.14651
G1 X114.293 Y92.688 E1.15916
G1 X115 Y92.878 E1.20481
G1 X115.225 Y92.946 E1.21947
G1 X115.852 Y93.151 E1.26061
G1 X116.048 Y93.22 E1.27357
G1 X116.654 Y93.451 E1.31401
G1 X116.835 Y93.525 E1.32621
G1 X117.383 Y93.763 E1.36346
G1 X117.624 Y93.875 E1.38004
G1 X118.251 Y94.186 E1.42369
G1 X118.44 Y94.286 E1.43702
G1 X118.998 Y94.599 E1.47692
G1 X119.178 Y94.705 E1.48995
G1 X119.746 Y95.061 E1.53175
G1 X119.987 Y95.221 E1.54979
G1 X120.545 Y95.614 E1.59235
G1 X120.72 Y95.744 E1.60595
G1 X121.25 Y96.159 E1.64793
G1 X121.395 Y96.278 E1.65963
G1 X121.818 Y96.64 E1.69435
G1 X122.082 Y96.878 E1.71651
G1 X122.551 Y97.325 E1.75692
G1 X122.693 Y97.468 E1.76949
G1 X123.12 Y97.915 E1.80804
G1 X123.272 Y98.082 E1.82212
G1 X123.738 Y98.624 E1.8667
G1 X123.874 Y98.79 E1.88008
G1 X124.287 Y99.322 E1.92208
G1 X124.407 Y99.485 E1.9347
G1 X124.794 Y100.035 E1.97664
G1 X124.917 Y100.219 E1.99044
G1 X125.268 Y100.777 E2.03155
G1 X125.377 Y100.961 E2.04489
G1 X125.732 Y101.593 E2.0901
G1 X125.831 Y101.779 E2.10324
G1 X126.073 Y102.264 E2.13704
G1 X126.216 Y102.572 E2.15822
G1 X126.469 Y103.151 E2.19762
G1 X126.551 Y103.351 E2.2111
G1 X126.8 Y104.009 E2.25498
G1 X126.871 Y104.214 E2.2685
G1 X127.076 Y104.851 E2.31024
G1 X127.133 Y105.043 E2.32273
G1 X127.313 Y105.711 E2.36587
G1 X127.368 Y105.941 E2.38062
G1 X127.501 Y106.559 E2.42004
G1 X127.539 Y106.758 E2.43268
G1 X127.649 Y107.419 E2.47446
G1 X127.678 Y107.625 E2.48744
G1 X127.748 Y108.223 E2.52498
G1 X127.767 Y108.427 E2.53776
G1 X127.804 Y108.963 E2.57127
G1 X127.814 Y109.229 E2.58787
G1 X127.818 Y109.872 E2.62797
G1 X127.814 Y110.349 E2.65772
G1 X127.814 Y110.617 E2.67443
G1 X127.806 Y110.876 E2.69059
G1 X127.769 Y111.489 E2.72889
G1 X127.728 Y111.96 E2.75837
G1 X127.692 Y112.265 E2.77752
G1 X127.607 Y112.851 E2.81445
G1 X127.572 Y113.057 E2.82748
G1 X127.436 Y113.754 E2.87177
G1 X127.389 Y113.968 E2.88543
G1 X127.219 Y114.652 E2.92939
G1 X127.163 Y114.857 E2.94264
G1 X126.965 Y115.509 E2.98513
G1 X126.899 Y115.703 E2.99791
G1 X126.683 Y116.309 E3.03803
G1 X126.607 Y116.508 E3.05132
G1 X126.366 Y117.091 E3.09066
G1 X126.235 Y117.385 E3.11073
G1 X125.966 Y117.952 E3.14987
G1 X125.876 Y118.131 E3.16236
G1 X125.633 Y118.587 E3.19459
G1 X125.46 Y118.894 E3.21656
G1 X125.403 Y118.992 E3.22363
G1 X125.094 Y119.503 E3.26087
G1 X124.983 Y119.676 E3.27369
G1 X124.591 Y120.258 E3.31745
G1 X124.464 Y120.435 E3.33104
G1 X124.099 Y120.924 E3.36909
G1 X123.97 Y121.088 E3.3821
G1 X123.532 Y121.618 E3.42498
G1 X123.339 Y121.839 E3.44328
G1 X122.921 Y122.295 E3.48186
G1 X122.773 Y122.448 E3.49513
G1 X122.289 Y122.926 E3.53755
G1 X122.143 Y123.064 E3.55008
G1 X121.745 Y123.422 E3.58347
G1 X121.513 Y123.62 E3.60249
G1 X120.949 Y124.077 E3.64776
G1 X120.783 Y124.205 E3.66083
G1 X120.241 Y124.601 E3.70269
G1 X120.071 Y124.719 E3.7156
G1 X119.499 Y125.095 E3.75828
G1 X119.293 Y125.223 E3.77341
G1 X118.69 Y125.576 E3.81698
G1 X118.526 Y125.665 E3.82862
G1 X117.932 Y125.974 E3.87038
G1 X117.739 Y126.068 E3.88376
G1 X117.165 Y126.331 E3.92314
G1 X116.984 Y126.409 E3.93543
G1 X116.34 Y126.669 E3.97874
G1 X116.135 Y126.746 E3.9924
G1 X115.496 Y126.967 E4.03456
G1 X115.292 Y127.032 E4.04792
G1 X114.673 Y127.212 E4.08812
G1 X114.463 Y127.267 E4.10165
G1 X113.783 Y127.428 E4.14523
G1 X113.568 Y127.473 E4.15893
G1 X112.876 Y127.6 E4.20281
G1 X112.671 Y127.633 E4.21576
G1 X112.026 Y127.719 E4.25634
G1 X111.793 Y127.744 E4.27095
G1 X111.181 Y127.796 E4.30925
G1 X110.967 Y127.808 E4.32262
G1 X110.28 Y127.832 E4.36549
G1 X110.062 Y127.834 E4.37909
G1 X109.371 Y127.823 E4.42218
G1 X109.166 Y127.815 E4.43498
G1 X108.465 Y127.769 E4.47879
G1 X108.26 Y127.748 E4.49164
G1 X107.629 Y127.676 E4.53125
G1 X107.416 Y127.647 E4.54465
G1 X106.798 Y127.545 E4.58371
G1 X106.512 Y127.49 E4.60188
G1 X105.934 Y127.365 E4.63875
G1 X105.637 Y127.292 E4.65783
G1 X105.029 Y127.127 E4.69712
G1 X104.841 Y127.071 E4.70935
G1 X104.178 Y126.857 E4.7528
G1 X103.955 Y126.778 E4.76755
G1 X103.345 Y126.546 E4.80825
G1 X103.086 Y126.44 E4.8257
G1 X102.515 Y126.188 E4.86462
G1 X102.334 Y126.103 E4.8771
G1 X101.7 Y125.786 E4.9213
G1 X101.544 Y125.701 E4.93238
G1 X100.9 Y125.338 E4.97848
G1 X100.751 Y125.248 E4.98934
G1 X100.238 Y124.926 E5.02711
G1 X100.051 Y124.801 E5.04114
G1 X99.448 Y124.377 E5.08711
G1 X99.273 Y124.248 E5.10066
G1 X98.788 Y123.869 E5.13905
G1 X98.635 Y123.743 E5.15141
G1 X98.059 Y123.248 E5.19877
G1 X97.92 Y123.121 E5.21052
G1 X97.447 Y122.669 E5.25132
G1 X97.306 Y122.528 E5.26375
G1 X96.873 Y122.074 E5.30288
G1 X96.731 Y121.917 E5.31608
G1 X96.324 Y121.446 E5.3549
G1 X96.104 Y121.178 E5.37652
G1 X95.698 Y120.655 E5.41781
G1 X95.578 Y120.492 E5.43043
G1 X95.226 Y119.99 E5.46867
G1 X95.056 Y119.732 E5.48794
G1 X94.704 Y119.17 E5.52929
G1 X94.596 Y118.988 E5.54249
G1 X94.282 Y118.427 E5.58258
G1 X94.18 Y118.235 E5.59614
G1 X93.876 Y117.621 E5.63887
G1 X93.789 Y117.434 E5.65173
G1 X93.517 Y116.811 E5.69412
G1 X93.438 Y116.617 E5.70719
G1 X93.212 Y116.022 E5.74688
G1 X93.141 Y115.819 E5.76029
G1 X92.923 Y115.144 E5.80453
G1 X92.851 Y114.897 E5.82057
G1 X92.681 Y114.261 E5.86163
G1 X92.635 Y114.066 E5.87412
G1 X92.502 Y113.453 E5.91324
G1 X92.46 Y113.233 E5.92721
G1 X92.349 Y112.552 E5.97024
G1 X92.321 Y112.347 E5.98314
G1 X92.245 Y111.68 E6.025
G1 X92.227 Y111.482 E6.0374
G1 X92.196 Y111.022 E6.06616
G1 X92.186 Y110.766 E6.08213
G1 X92.182 Y110.166 E6.11955
G1 X92.187 Y109.634 E6.15273
G1 X92.187 Y109.4 E6.16732
G1 X92.195 Y109.138 E6.18367
G1 X92.237 Y108.451 E6.22659
G1 X92.275 Y108.024 E6.25333
G1 X92.312 Y107.712 E6.27292
G1 X92.404 Y107.088 E6.31225
G1 X92.439 Y106.883 E6.32522
G1 X92.569 Y106.224 E6.36711
G1 X92.615 Y106.019 E6.38022
G1 X92.78 Y105.355 E6.42288
G1 X92.836 Y105.152 E6.43602
G1 X93.027 Y104.519 E6.47725
G1 X93.108 Y104.276 E6.49322
G1 X93.334 Y103.646 E6.53496
G1 X93.42 Y103.429 E6.54952
G1 X93.66 Y102.852 E6.58849
G1 X93.741 Y102.669 E6.60097
G1 X94.03 Y102.06 E6.64301
G1 X94.15 Y101.824 E6.65952
G1 X94.451 Y101.263 E6.69923
G1 X94.553 Y101.084 E6.71207
G1 X94.889 Y100.526 E6.75269
G1 X95.059 Y100.26 E6.77238
G1 X95.366 Y99.804 E6.80666
G1 X95.483 Y99.639 E6.81928
G1 X95.907 Y99.069 E6.86358
G1 X96.039 Y98.9 E6.87695
G1 X96.452 Y98.399 E6.91744
G1 X96.59 Y98.24 E6.93057
G1 X97.056 Y97.728 E6.97375
G1 X97.216 Y97.561 E6.98817
G1 F1500 E0.48817
G1 F300 Z0.75
;MESH:arandela.stl
G0 F3000 X110.306 Y122.638 Z0.75
;TYPE:WALL-INNER
G1 F300 Z0.25
G1 F1500 E6.98817
G1 F1200 X109.685 Y122.638 E7.0269
G1 X109.056 Y122.607 E7.06617
G1 X108.421 Y122.543 E7.10597
G1 X107.8 Y122.449 E7.14514
G1 X107.191 Y122.326 E7.18389
G1 X106.586 Y122.171 E7.22283
G1 X105.975 Y121.985 E7.26266
G1 X105.393 Y121.773 E7.30129
G1 X104.805 Y121.525 E7.34109
G1 X104.233 Y121.25 E7.38067
G1 X103.683 Y120.951 E7.41971
G1 X103.155 Y120.629 E7.45828
G1 X102.644 Y120.282 E7.4968
G1 X102.12 Y119.886 E7.53776
G1 X101.641 Y119.485 E7.57672
G1 X101.192 Y119.069 E7.61489
G1 X100.738 Y118.605 E7.65537
G1 X100.326 Y118.141 E7.69407
G1 X99.944 Y117.661 E7.73233
G1 X99.572 Y117.148 E7.77184
G1 X99.214 Y116.596 E7.81287
G1 X98.915 Y116.078 E7.85017
G1 X98.621 Y115.509 E7.89011
G1 X98.371 Y114.958 E7.92785
G1 X98.127 Y114.343 E7.96911
G1 X97.934 Y113.773 E8.00664
G1 X97.759 Y113.159 E8.04645
G1 X97.616 Y112.54 E8.08607
G1 X97.505 Y111.924 E8.12511
G1 X97.468 Y111.638 E8.14309
G1 X99.76 Y111.638 E8.28603
G1 X99.791 Y111.838 E8.29865
G1 X99.895 Y112.344 E8.33086
G1 X100.025 Y112.843 E8.36302
G1 X100.179 Y113.335 E8.39517
G1 X100.356 Y113.82 E8.42737
G1 X100.559 Y114.295 E8.45958
G1 X100.784 Y114.76 E8.4918
G1 X101.032 Y115.212 E8.52395
G1 X101.302 Y115.652 E8.55614
G1 X101.595 Y116.078 E8.58839
G1 X101.908 Y116.488 E8.62056
G1 X102.239 Y116.882 E8.65265
G1 X102.593 Y117.26 E8.68494
G1 X102.962 Y117.619 E8.71705
G1 X103.349 Y117.959 E8.74917
G1 X103.753 Y118.282 E8.78143
G1 X104.176 Y118.584 E8.81384
G1 X104.609 Y118.86 E8.84587
G1 X105.055 Y119.118 E8.878
G1 X105.516 Y119.353 E8.91027
G1 X105.986 Y119.565 E8.94242
G1 X106.468 Y119.751 E8.97464
G1 X106.956 Y119.916 E9.00677
G1 X107.454 Y120.055 E9.03901
G1 X107.958 Y120.168 E9.07122
G1 X108.466 Y120.259 E9.10341
G1 X108.977 Y120.321 E9.13551
G1 X109.491 Y120.36 E9.16765
G1 X110.008 Y120.372 E9.1999
G1 X110.524 Y120.36 E9.23209
G1 X111.039 Y120.32 E9.26431
G1 X111.551 Y120.256 E9.29648
G1 X112.06 Y120.166 E9.32872
G1 X112.562 Y120.052 E9.36082
G1 X113.059 Y119.911 E9.39304
G1 X113.549 Y119.747 E9.42526
G1 X114.029 Y119.559 E9.45741
G1 X114.501 Y119.345 E9.48973
G1 X114.959 Y119.11 E9.52183
G1 X115.405 Y118.852 E9.55397
G1 X115.84 Y118.573 E9.58619
G1 X116.259 Y118.272 E9.61837
G1 X116.663 Y117.95 E9.65058
G1 X117.05 Y117.609 E9.68275
G1 X117.42 Y117.249 E9.71495
G1 X117.772 Y116.87 E9.7472
G1 X118.104 Y116.476 E9.77933
G1 X118.416 Y116.065 E9.81151
G1 X118.707 Y115.638 E9.84374
G1 X118.977 Y115.198 E9.87593
G1 X119.224 Y114.746 E9.90805
G1 X119.448 Y114.282 E9.94019
G1 X119.65 Y113.806 E9.97243
G1 X119.828 Y113.32 E10.00471
G1 X119.981 Y112.828 E10.03684
G1 X120.109 Y112.327 E10.06909
G1 X120.212 Y111.821 E10.10129
G1 X120.24 Y111.638 E10.11284
G1 X122.534 Y111.638 E10.2559
G1 X122.495 Y111.94 E10.27489
G1 X122.382 Y112.563 E10.31437
G1 X122.24 Y113.172 E10.35337
G1 X122.069 Y113.772 E10.39228
G1 X121.865 Y114.367 E10.4315
G1 X121.633 Y114.954 E10.47087
G1 X121.366 Y115.539 E10.51097
G1 X121.093 Y116.068 E10.54809
G1 X120.757 Y116.643 E10.58963
G1 X120.427 Y117.151 E10.6274
G1 X120.057 Y117.661 E10.6667
G1 X119.662 Y118.155 E10.70614
G1 X119.242 Y118.627 E10.74554
G1 X118.792 Y119.085 E10.78558
G1 X118.356 Y119.489 E10.82265
G1 X117.862 Y119.9 E10.86273
G1 X117.357 Y120.282 E10.90222
G1 X116.846 Y120.629 E10.94074
G1 X116.291 Y120.966 E10.98123
G1 X115.74 Y121.264 E11.02029
G1 X115.185 Y121.53 E11.05868
G1 X114.599 Y121.776 E11.09831
G1 X114.016 Y121.988 E11.137
G1 X113.423 Y122.169 E11.17566
G1 X112.782 Y122.332 E11.21691
G1 X112.179 Y122.453 E11.25526
G1 X111.57 Y122.544 E11.29366
G1 X110.93 Y122.607 E11.33377
G1 X110.306 Y122.638 E11.37273
G0 F3000 X110.316 Y123.238
;TYPE:WALL-OUTER
G1 F1200 X109.675 Y123.238 E11.41271
G1 X109.006 Y123.205 E11.45448
G1 X108.354 Y123.139 E11.49535
G1 X107.69 Y123.039 E11.53722
G1 X107.059 Y122.911 E11.57737
G1 X106.418 Y122.747 E11.61864
G1 X105.785 Y122.554 E11.65991
G1 X105.174 Y122.332 E11.70045
G1 X104.555 Y122.071 E11.74234
G1 X103.973 Y121.791 E11.78262
G1 X103.384 Y121.471 E11.82442
G1 X102.836 Y121.137 E11.86444
G1 X102.282 Y120.761 E11.9062
G1 X101.758 Y120.365 E11.94716
G1 X101.256 Y119.945 E11.98797
G1 X100.763 Y119.489 E12.02985
G1 X100.304 Y119.02 E12.07078
G1 X99.869 Y118.529 E12.11169
G1 X99.469 Y118.028 E12.15167
G1 X99.079 Y117.49 E12.19311
G1 X98.711 Y116.923 E12.23526
G1 X98.39 Y116.368 E12.27525
G1 X98.082 Y115.772 E12.31708
G1 X97.815 Y115.184 E12.35736
G1 X97.569 Y114.564 E12.39895
G1 X97.361 Y113.953 E12.4392
G1 X97.175 Y113.299 E12.48161
G1 X97.027 Y112.66 E12.52251
G1 X96.914 Y112.03 E12.56243
G1 X96.828 Y111.365 E12.60424
G1 X96.802 Y111.038 E12.6247
G1 X100.285 Y111.038 E12.84191
G1 X100.307 Y111.25 E12.8552
G1 X100.382 Y111.731 E12.88556
G1 X100.48 Y112.208 E12.91593
G1 X100.602 Y112.678 E12.94621
G1 X100.747 Y113.142 E12.97653
G1 X100.914 Y113.599 E13.00687
G1 X101.105 Y114.047 E13.03724
G1 X101.317 Y114.485 E13.06759
G1 X101.551 Y114.911 E13.0979
G1 X101.805 Y115.325 E13.12819
G1 X102.081 Y115.726 E13.15855
G1 X102.376 Y116.113 E13.18889
G1 X102.688 Y116.484 E13.21912
G1 X103.021 Y116.84 E13.24952
G1 X103.369 Y117.178 E13.27978
G1 X103.734 Y117.499 E13.31009
G1 X104.115 Y117.803 E13.34049
G1 X104.512 Y118.086 E13.37089
G1 X104.921 Y118.347 E13.40115
G1 X105.342 Y118.591 E13.4315
G1 X105.775 Y118.812 E13.46181
G1 X106.218 Y119.011 E13.4921
G1 X106.672 Y119.187 E13.52246
G1 X107.133 Y119.342 E13.55279
G1 X107.601 Y119.473 E13.5831
G1 X108.076 Y119.58 E13.61347
G1 X108.555 Y119.665 E13.64381
G1 X109.036 Y119.724 E13.67403
G1 X109.521 Y119.761 E13.70436
G1 X110.008 Y119.772 E13.73474
G1 X110.494 Y119.761 E13.76505
G1 X110.979 Y119.723 E13.79539
G1 X111.462 Y119.663 E13.82575
G1 X111.941 Y119.578 E13.85608
G1 X112.414 Y119.47 E13.88634
G1 X112.882 Y119.338 E13.91667
G1 X113.344 Y119.183 E13.94706
G1 X113.796 Y119.006 E13.97733
G1 X114.24 Y118.805 E14.00772
G1 X114.672 Y118.583 E14.03801
G1 X115.093 Y118.34 E14.06833
G1 X115.502 Y118.077 E14.09865
G1 X115.897 Y117.793 E14.12899
G1 X116.278 Y117.49 E14.15935
G1 X116.642 Y117.169 E14.18961
G1 X116.991 Y116.83 E14.21996
G1 X117.322 Y116.473 E14.25032
G1 X117.635 Y116.101 E14.28063
G1 X117.929 Y115.714 E14.31094
G1 X118.203 Y115.312 E14.34128
G1 X118.458 Y114.897 E14.37166
G1 X118.69 Y114.471 E14.40191
G1 X118.902 Y114.034 E14.4322
G1 X119.092 Y113.586 E14.46255
G1 X119.259 Y113.128 E14.49295
G1 X119.404 Y112.664 E14.52327
G1 X119.524 Y112.193 E14.55358
G1 X119.621 Y111.716 E14.58393
G1 X119.698 Y111.215 E14.61554
G1 X119.716 Y111.038 E14.62664
G1 X123.2 Y111.038 E14.84391
G1 X123.173 Y111.379 E14.86524
G1 X123.089 Y112.023 E14.90574
G1 X122.969 Y112.685 E14.9477
G1 X122.817 Y113.337 E14.98945
G1 X122.641 Y113.953 E15.0294
G1 X122.429 Y114.574 E15.07033
G1 X122.186 Y115.188 E15.11151
G1 X121.909 Y115.795 E15.15312
G1 X121.613 Y116.368 E15.19334
G1 X121.27 Y116.955 E15.23573
G1 X120.92 Y117.493 E15.27576
G1 X120.526 Y118.036 E15.3176
G1 X120.126 Y118.536 E15.35753
G1 X119.67 Y119.048 E15.40029
G1 X119.22 Y119.506 E15.44033
G1 X118.74 Y119.95 E15.48111
G1 X118.224 Y120.379 E15.52295
G1 X117.712 Y120.766 E15.56298
G1 X117.158 Y121.142 E15.60473
G1 X116.597 Y121.483 E15.64568
G1 X116.012 Y121.799 E15.68714
G1 X115.429 Y122.078 E15.72745
G1 X114.81 Y122.338 E15.76932
G1 X114.207 Y122.557 E15.80932
G1 X113.576 Y122.75 E15.85047
G1 X112.93 Y122.914 E15.89204
G1 X112.287 Y123.043 E15.93294
G1 X111.635 Y123.14 E15.97404
G1 X110.978 Y123.205 E16.01522
G1 X110.316 Y123.238 E16.05655
G0 F3000 X110.3 Y122.579
G0 X110.276 Y122.048
;TYPE:SKIN
G1 F1200 X109.714 Y122.048 E16.0916
G1 X109.095 Y122.017 E16.13025
G1 X108.508 Y121.959 E16.16704
