;FLAVOR:Marlin
;TIME:920
;Filament used: 0.771498m
;Layer height: 0.2
;MINX:94.215
;MINY:94.23
;MINZ:0.25
;MAXX:125.787
;MAXY:125.779
;MAXZ:11.05
;Generated with Cura_SteamEngine 4.12.1
M140 S60
M105
M190 S60
M104 S200
M105
M109 S200
M82 ;absolute extrusion mode
; Ender 3 Custom Start G-code
G92 E0 ; Reset Extruder
G28 ; Home all axes
G1 Z2.0 F3000 ; Move Z Axis up little to prevent scratching of Heat Bed
G1 X0.1 Y20 Z0.3 F5000.0 ; Move to start position
G1 X0.1 Y200.0 Z0.3 F1500.0 E15 ; Draw the first line
G1 X0.4 Y200.0 Z0.3 F5000.0 ; Move to side a little
G1 X0.4 Y20 Z0.3 F1500.0 E30 ; Draw the second line
G92 E0 ; Reset Extruder
G1 Z2.0 F3000 ; Move Z Axis up little to prevent scratching of Heat Bed
G1 X5 Y20 Z0.3 F5000.0 ; Move over to prevent blob squish
G92 E0
G92 E0
G1 F1500 E-6.5
;LAYER_COUNT:55
;LAYER:0
M107
G1 F300 Z0.75
G0 F3000 X98.755 Y98.901 Z0.75
;TYPE:SKIRT
G1 F300 Z0.25
G1 F1500 E0
G1 F1200 X99.061 Y98.613 E0.02621
G1 X99.414 Y98.304 E0.05546
G1 X99.986 Y97.813 E0.10247
G1 X100.443 Y97.432 E0.13958
G1 X100.663 Y97.258 E0.15707
G1 X101.078 Y96.97 E0.18857
G1 X101.825 Y96.514 E0.24315
G1 X102.27 Y96.252 E0.27536
G1 X102.77 Y95.967 E0.31125
G1 X103.094 Y95.793 E0.33418
G1 X103.54 Y95.59 E0.36474
G1 X104.309 Y95.291 E0.4162
G1 X104.852 Y95.091 E0.45228
G1 X105.513 Y94.858 E0.49599
G1 X105.87 Y94.749 E0.51927
G1 X106.124 Y94.688 E0.53556
G1 X106.495 Y94.61 E0.5592
G1 X107.551 Y94.419 E0.62613
G1 X108.274 Y94.301 E0.67181
G1 X108.661 Y94.256 E0.69611
G1 X108.89 Y94.243 E0.71041
G1 X109.304 Y94.232 E0.73624
G1 X110.366 Y94.23 E0.80247
G1 X111.008 Y94.239 E0.84251
G1 X111.259 Y94.25 E0.85818
G1 X111.328 Y94.255 E0.86249
G1 X111.705 Y94.299 E0.88616
G1 X112.631 Y94.45 E0.94467
G1 X113.126 Y94.539 E0.97604
G1 X113.759 Y94.662 E1.01625
G1 X114.343 Y94.819 E1.05396
G1 X115.523 Y95.227 E1.13183
G1 X115.829 Y95.341 E1.15219
G1 X116.421 Y95.571 E1.1918
G1 X116.971 Y95.831 E1.22974
G1 X118.029 Y96.426 E1.30543
G1 X118.279 Y96.574 E1.32355
G1 X118.897 Y96.949 E1.36863
G1 X119.409 Y97.313 E1.40781
G1 X120.16 Y97.937 E1.4687
G1 X120.585 Y98.302 E1.50364
G1 X121.076 Y98.737 E1.54455
G1 X121.446 Y99.108 E1.57722
G1 X121.714 Y99.412 E1.6025
G1 X121.868 Y99.598 E1.61756
G1 X122.459 Y100.323 E1.67589
G1 X122.865 Y100.836 E1.71669
G1 X123.071 Y101.12 E1.73857
G1 X123.123 Y101.198 E1.74441
G1 X123.272 Y101.438 E1.76203
G1 X123.71 Y102.199 E1.81679
G1 X123.958 Y102.647 E1.84872
G1 X124.274 Y103.236 E1.8904
G1 X124.439 Y103.578 E1.91408
G1 X124.501 Y103.723 E1.92392
G1 X124.595 Y103.964 E1.94005
G1 X124.849 Y104.675 E1.98714
G1 X125.035 Y105.217 E2.02287
G1 X125.239 Y105.842 E2.06387
G1 X125.387 Y106.437 E2.10211
G1 X125.601 Y107.668 E2.18003
G1 X125.652 Y108.001 E2.20104
G1 X125.748 Y108.705 E2.24535
G1 X125.787 Y109.286 E2.28166
G1 X125.787 Y110.732 E2.37184
G1 X125.761 Y111.207 E2.4015
G1 X125.739 Y111.39 E2.413
G1 X125.652 Y112.008 E2.45192
G1 X125.541 Y112.732 E2.4976
G1 X125.422 Y113.444 E2.54262
G1 X125.293 Y113.993 E2.57778
G1 X125.192 Y114.323 E2.59931
G1 X124.839 Y115.364 E2.66786
G1 X124.591 Y116.06 E2.71393
G1 X124.397 Y116.518 E2.74495
G1 X124.268 Y116.779 E2.76311
G1 X124.201 Y116.908 E2.77218
G1 X123.918 Y117.435 E2.80948
G1 X123.607 Y117.995 E2.84943
G1 X123.289 Y118.551 E2.88937
G1 X122.936 Y119.075 E2.92877
G1 X122.316 Y119.862 E2.99125
G1 X122.023 Y120.221 E3.02015
G1 X121.577 Y120.755 E3.06354
G1 X121.136 Y121.211 E3.1031
G1 X120.357 Y121.903 E3.16808
G1 X119.963 Y122.24 E3.20041
G1 X119.49 Y122.635 E3.23884
G1 X118.982 Y123.001 E3.27789
G1 X118.106 Y123.537 E3.34194
G1 X117.665 Y123.796 E3.37383
G1 X117.107 Y124.114 E3.41388
G1 X116.545 Y124.382 E3.45271
G1 X115.591 Y124.755 E3.51659
G1 X115.139 Y124.922 E3.54664
G1 X114.505 Y125.147 E3.5886
G1 X113.903 Y125.313 E3.62754
G1 X112.909 Y125.509 E3.69072
G1 X112.406 Y125.598 E3.72258
G1 X111.739 Y125.707 E3.76472
G1 X111.123 Y125.762 E3.80329
G1 X110.171 Y125.779 E3.86267
G1 X109.836 Y125.779 E3.88356
G1 X108.872 Y125.762 E3.94369
G1 X108.256 Y125.707 E3.98226
G1 X107.526 Y125.587 E4.02839
G1 X106.91 Y125.477 E4.06742
G1 X106.241 Y125.347 E4.10992
G1 X105.655 Y125.19 E4.14775
G1 X104.583 Y124.819 E4.21849
G1 X104.418 Y124.758 E4.22947
G1 X103.427 Y124.369 E4.29586
G1 X102.867 Y124.101 E4.33457
G1 X102.28 Y123.765 E4.37675
G1 X101.952 Y123.571 E4.40052
G1 X100.98 Y122.972 E4.47172
G1 X100.563 Y122.679 E4.5035
G1 X100.412 Y122.557 E4.51561
G1 X100.056 Y122.258 E4.5446
G1 X99.423 Y121.714 E4.59665
G1 X98.925 Y121.273 E4.63814
G1 X98.75 Y121.109 E4.65309
G1 X98.482 Y120.825 E4.67745
G1 X98.276 Y120.584 E4.69722
G1 X98.089 Y120.358 E4.71551
G1 X97.551 Y119.696 E4.76871
G1 X97.152 Y119.192 E4.8088
G1 X96.807 Y118.687 E4.84694
G1 X96.202 Y117.646 E4.92202
G1 X96.062 Y117.394 E4.94
G1 X95.694 Y116.708 E4.98855
G1 X95.482 Y116.251 E5.01997
G1 X95.34 Y115.877 E5.04492
G1 X94.954 Y114.752 E5.11909
G1 X94.732 Y114.07 E5.16382
G1 X94.585 Y113.479 E5.2018
G1 X94.494 Y112.951 E5.23521
G1 X94.343 Y111.957 E5.29791
G1 X94.255 Y111.317 E5.3382
G1 X94.215 Y110.728 E5.37501
G1 X94.216 Y109.269 E5.466
G1 X94.255 Y108.691 E5.50213
G1 X94.35 Y108.003 E5.54544
G1 X94.455 Y107.316 E5.58878
G1 X94.579 Y106.573 E5.63576
G1 X94.659 Y106.196 E5.65979
G1 X94.723 Y105.969 E5.6745
G1 X94.865 Y105.513 E5.70428
G1 X95.181 Y104.59 E5.76512
G1 X95.411 Y103.947 E5.80771
G1 X95.663 Y103.378 E5.84652
G1 X96.198 Y102.371 E5.91763
G1 X96.274 Y102.234 E5.9274
G1 X96.784 Y101.353 E5.99089
G1 X97.135 Y100.836 E6.02986
G1 X97.555 Y100.307 E6.07198
G1 X97.993 Y99.771 E6.11515
G1 X98.445 Y99.233 E6.15897
G1 X98.755 Y98.901 E6.18729
G1 F1500 E-0.31271
G1 F300 Z0.75
;MESH:arandela.stl
G0 F3000 X110.936 Y120.579 Z0.75
;TYPE:WALL-INNER
G1 F300 Z0.25
G1 F1500 E6.18729
G1 F1200 X109.058 Y120.579 E6.30441
G1 X107.216 Y120.25 E6.4211
G1 X105.437 Y119.59 E6.53943
G1 X103.817 Y118.634 E6.65674
G1 X102.398 Y117.414 E6.77344
G1 X101.211 Y115.957 E6.89064
G1 X100.299 Y114.309 E7.0081
G1 X99.691 Y112.531 E7.12529
G1 X99.554 Y111.633 E7.18194
G1 X100.803 Y111.633 E7.25983
G1 X101.012 Y112.71 E7.32825
G1 X101.047 Y112.821 E7.33551
G1 X101.784 Y114.547 E7.45255
G1 X101.844 Y114.648 E7.45987
G1 X102.92 Y116.167 E7.57596
G1 X102.997 Y116.255 E7.58325
G1 X104.386 Y117.529 E7.70079
G1 X104.481 Y117.596 E7.70804
G1 X106.127 Y118.561 E7.82703
G1 X107.981 Y119.173 E7.94879
G1 X108.095 Y119.195 E7.95603
G1 X109.946 Y119.392 E8.07211
G1 X110.063 Y119.392 E8.07941
G1 X111.971 Y119.189 E8.19907
G1 X113.861 Y118.568 E8.32314
G1 X115.577 Y117.564 E8.44712
G1 X117.018 Y116.243 E8.56903
G1 X117.094 Y116.152 E8.57643
G1 X118.181 Y114.616 E8.69378
G1 X118.235 Y114.506 E8.70142
G1 X118.957 Y112.816 E8.81603
G1 X118.994 Y112.701 E8.82356
G1 X119.2 Y111.633 E8.89139
G1 X120.449 Y111.633 E8.96928
G1 X120.311 Y112.532 E9.026
G1 X119.703 Y114.311 E9.14325
G1 X118.793 Y115.953 E9.26032
G1 X117.606 Y117.412 E9.37762
G1 X116.178 Y118.638 E9.49499
G1 X114.554 Y119.594 E9.61251
G1 X112.788 Y120.249 E9.72997
G1 X110.936 Y120.579 E9.84729
G0 F3000 X110.991 Y121.179
;TYPE:WALL-OUTER
G1 F1200 X109.002 Y121.179 E9.97133
G1 X107.078 Y120.835 E10.09322
G1 X107.048 Y120.828 E10.09514
G1 X105.179 Y120.135 E10.21945
G1 X103.468 Y119.125 E10.34335
G1 X101.967 Y117.834 E10.46682
G1 X100.711 Y116.293 E10.5908
G1 X99.748 Y114.554 E10.71477
G1 X99.106 Y112.676 E10.83854
G1 X98.855 Y111.033 E10.94219
G1 X101.298 Y111.033 E11.09454
G1 X101.594 Y112.561 E11.1916
G1 X101.61 Y112.611 E11.19488
G1 X102.321 Y114.276 E11.30778
G1 X102.348 Y114.322 E11.31111
G1 X103.392 Y115.795 E11.4237
G1 X103.427 Y115.835 E11.42702
G1 X104.762 Y117.06 E11.54001
G1 X104.805 Y117.09 E11.54328
G1 X106.376 Y118.011 E11.65684
G1 X108.132 Y118.591 E11.77217
G1 X108.184 Y118.601 E11.77547
G1 X109.978 Y118.792 E11.88799
G1 X110.031 Y118.792 E11.89129
G1 X111.844 Y118.599 E12.00499
G1 X113.613 Y118.018 E12.12111
G1 X115.219 Y117.078 E12.23716
G1 X116.583 Y115.828 E12.35254
G1 X116.618 Y115.786 E12.35595
G1 X117.663 Y114.309 E12.46878
G1 X117.689 Y114.256 E12.47246
G1 X118.394 Y112.607 E12.5843
G1 X118.411 Y112.553 E12.58783
G1 X118.705 Y111.033 E12.68438
G1 X121.147 Y111.033 E12.83667
G1 X120.896 Y112.677 E12.94038
G1 X120.254 Y114.556 E13.06422
G1 X119.293 Y116.289 E13.18779
G1 X118.037 Y117.832 E13.31187
G1 X116.529 Y119.127 E13.43583
G1 X114.809 Y120.14 E13.56031
G1 X112.948 Y120.83 E13.68409
G1 X110.991 Y121.179 E13.80806
G0 F3000 X110.933 Y120.522
G0 X110.882 Y119.989
;TYPE:SKIN
G1 F1200 X109.106 Y119.989 E13.91882
G1 X107.375 Y119.68 E14.02847
G1 X105.689 Y119.055 E14.14061
G1 X104.164 Y118.154 E14.25107
G1 X102.823 Y117.001 E14.36136
G1 X101.699 Y115.623 E14.47226
G1 X100.841 Y114.07 E14.58291
G1 X100.267 Y112.395 E14.69333
G1 X100.241 Y112.223 E14.70418
G1 X100.316 Y112.223 E14.70885
G1 X100.439 Y112.855 E14.74901
G1 X100.493 Y113.025 E14.76013
G1 X101.257 Y114.814 E14.88144
G1 X101.348 Y114.97 E14.89271
G1 X102.456 Y116.533 E15.01219
G1 X102.574 Y116.668 E15.02337
G1 X104.015 Y117.989 E15.14528
G1 X104.161 Y118.092 E15.15642
G1 X105.883 Y119.102 E15.28092
G1 X107.832 Y119.745 E15.40891
G1 X108.008 Y119.779 E15.42009
G1 X109.915 Y119.982 E15.53969
G1 X110.094 Y119.982 E15.55085
G1 X112.095 Y119.769 E15.67634
G1 X114.105 Y119.109 E15.80828
G1 X115.929 Y118.042 E15.94006
G1 X117.445 Y116.652 E16.06832
G1 X117.562 Y116.512 E16.0797
G1 X118.69 Y114.918 E16.20148
G1 X118.772 Y114.752 E16.21303
G1 X119.51 Y113.023 E16.33026
G1 X119.566 Y112.849 E16.34166
G1 X119.687 Y112.223 E16.38143
G1 X119.761 Y112.223 E16.38604
G1 X119.734 Y112.396 E16.39696
G1 X119.161 Y114.072 E16.50742
G1 X118.305 Y115.619 E16.61768
G1 X117.181 Y116.999 E16.72867
G1 X115.835 Y118.155 E16.83932
G1 X114.297 Y119.061 E16.95064
G1 X112.634 Y119.677 E17.06124
G1 X110.882 Y119.989 E17.17221
G0 F3000 X110.883 Y119.979
G1 F1500 E10.67221
G1 F300 Z0.75
G0 F3000 X110.885 Y119.979 Z0.75
G0 X100.803 Y108.378
;TYPE:WALL-INNER
G1 F300 Z0.25
G1 F1500 E17.17221
G1 F1200 X99.553 Y108.378 E17.25017
G1 X99.689 Y107.484 E17.30656
G1 X100.297 Y105.699 E17.42416
G1 X101.214 Y104.047 E17.54199
G1 X102.403 Y102.59 E17.65927
G1 X103.823 Y101.372 E17.77594
G1 X105.445 Y100.415 E17.89338
G1 X107.211 Y99.763 E18.01078
G1 X109.065 Y99.431 E18.12824
G1 X110.942 Y99.43 E18.2453
G1 X112.789 Y99.761 E18.36232
G1 X114.55 Y100.411 E18.47938
G1 X116.171 Y101.367 E18.59674
G1 X117.595 Y102.587 E18.71368
G1 X118.792 Y104.055 E18.8318
G1 X119.703 Y105.697 E18.94891
G1 X120.313 Y107.48 E19.06643
G1 X120.449 Y108.378 E19.12307
G1 X119.199 Y108.378 E19.20102
G1 X118.978 Y107.242 E19.27319
G1 X118.236 Y105.505 E19.39099
G1 X118.182 Y105.395 E19.39863
G1 X117.095 Y103.859 E19.51598
G1 X117.019 Y103.768 E19.52337
G1 X115.578 Y102.447 E19.64528
G1 X113.862 Y101.443 E19.76927
G1 X111.972 Y100.822 E19.89333
G1 X109.995 Y100.613 E20.01731
G1 X108.097 Y100.814 E20.13634
G1 X107.982 Y100.836 E20.14364
G1 X106.128 Y101.448 E20.2654
G1 X104.482 Y102.413 E20.38439
G1 X104.387 Y102.48 E20.39164
G1 X103.011 Y103.743 E20.50812
G1 X102.93 Y103.828 E20.51544
G1 X101.845 Y105.361 E20.63256
G1 X101.785 Y105.462 E20.63989
G1 X101.05 Y107.182 E20.75654
G1 X101.013 Y107.295 E20.76395
G1 X100.803 Y108.378 E20.83275
G0 F3000 X101.298 Y108.978
;TYPE:WALL-OUTER
G1 F1200 X98.855 Y108.978 E20.9851
G1 X99.104 Y107.341 E21.08836
G1 X99.741 Y105.47 E21.21162
G1 X99.75 Y105.447 E21.21316
G1 X100.693 Y103.749 E21.33429
G1 X100.721 Y103.703 E21.33764
G1 X101.943 Y102.205 E21.4582
G1 X101.98 Y102.163 E21.46169
G1 X103.454 Y100.898 E21.58283
G1 X103.491 Y100.871 E21.58568
G1 X105.161 Y99.886 E21.7066
G1 X105.203 Y99.865 E21.70952
G1 X107.016 Y99.194 E21.83008
G1 X107.075 Y99.177 E21.83391
G1 X108.987 Y98.835 E21.95504
G1 X109.022 Y98.831 E21.95724
G1 X110.972 Y98.83 E22.07885
G1 X111.02 Y98.834 E22.08185
G1 X112.928 Y99.176 E22.20274
G1 X112.975 Y99.19 E22.20579
G1 X114.798 Y99.863 E22.32698
G1 X114.836 Y99.883 E22.32966
G1 X116.511 Y100.87 E22.4509
G1 X116.542 Y100.894 E22.45335
G1 X118.026 Y102.166 E22.57524
G1 X119.286 Y103.711 E22.69957
G1 X119.303 Y103.738 E22.70156
G1 X120.249 Y105.444 E22.82321
G1 X120.257 Y105.462 E22.82444
G1 X120.891 Y107.317 E22.94669
G1 X120.9 Y107.354 E22.94907
G1 X121.147 Y108.978 E23.05151
G1 X118.704 Y108.978 E23.20386
G1 X118.401 Y107.419 E23.3029
G1 X117.69 Y105.755 E23.41575
G1 X117.664 Y105.702 E23.41943
G1 X116.619 Y104.225 E23.53226
G1 X116.584 Y104.183 E23.53567
G1 X115.22 Y102.933 E23.65105
G1 X113.614 Y101.993 E23.7671
G1 X111.845 Y101.412 E23.88322
G1 X109.995 Y101.216 E23.99924
G1 X108.185 Y101.408 E24.11275
G1 X108.133 Y101.418 E24.11605
G1 X106.377 Y101.998 E24.23138
G1 X104.806 Y102.919 E24.34494
G1 X104.763 Y102.949 E24.34821
G1 X103.432 Y104.171 E24.4609
G1 X103.395 Y104.21 E24.46425
G1 X102.349 Y105.687 E24.57712
G1 X102.322 Y105.733 E24.58044
G1 X101.612 Y107.394 E24.69309
G1 X101.595 Y107.446 E24.69651
G1 X101.298 Y108.978 E24.79382
G0 F3000 X100.74 Y108.301
G0 X100.316 Y107.788
;TYPE:SKIN
G1 F1200 X100.24 Y107.788 E24.79856
G1 X100.266 Y107.619 E24.80923
G1 X100.837 Y105.942 E24.91971
G1 X101.706 Y104.377 E25.03134
G1 X102.826 Y103.004 E25.14184
G1 X104.171 Y101.852 E25.25228
G1 X105.697 Y100.95 E25.36283
G1 X107.369 Y100.333 E25.47397
G1 X109.113 Y100.021 E25.58446
G1 X109.981 Y100.021 E25.63859
G1 X108.011 Y100.23 E25.76213
G1 X107.833 Y100.264 E25.77343
G1 X105.884 Y100.907 E25.90142
G1 X104.162 Y101.917 E26.02592
G1 X104.016 Y102.02 E26.03706
G1 X102.598 Y103.322 E26.15711
G1 X102.474 Y103.452 E26.16832
G1 X101.349 Y105.039 E26.28963
G1 X101.258 Y105.195 E26.3009
G1 X100.497 Y106.974 E26.42156
G1 X100.441 Y107.146 E26.43284
G1 X100.316 Y107.788 E26.47363
G0 F3000 X101.812 Y105.34
G0 X102.983 Y103.715
G0 X104.461 Y102.38
G0 X105.946 Y101.509
G0 X110.009 Y100.02
G1 F1200 X110.894 Y100.02 E26.52882
G1 X112.633 Y100.331 E26.63899
G1 X114.296 Y100.945 E26.74954
G1 X115.824 Y101.847 E26.8602
G1 X117.169 Y102.998 E26.9706
G1 X118.302 Y104.388 E27.08243
G1 X119.163 Y105.941 E27.19317
G1 X119.737 Y107.616 E27.30359
G1 X119.763 Y107.788 E27.31444
G1 X119.685 Y107.788 E27.3193
G1 X119.545 Y107.067 E27.36511
G1 X118.773 Y105.259 E27.48771
G1 X118.691 Y105.093 E27.49925
G1 X117.563 Y103.499 E27.62103
G1 X117.446 Y103.359 E27.63241
G1 X115.93 Y101.969 E27.76068
G1 X114.106 Y100.902 E27.89246
G1 X112.096 Y100.242 E28.02439
G1 X110.009 Y100.02 E28.15528
G0 F3000 X109.995 Y100.013
G1 F1500 E21.65528
G1 F300 Z0.75
;MESH:NONMESH
G0 F3000 X109.995 Y100.013 Z0.75
G0 X109.14 Y120.581
;TIME_ELAPSED:31.747454
;LAYER:1
M106 S85
;MESH:arandela.stl
G0 F5100 X109.14 Y120.581 Z0.95
;TYPE:WALL-INNER
G1 F300 Z0.45
G1 F1500 E28.15528
G1 X109.049 Y120.579 E28.15982
G1 X107.27 Y120.259 E28.25
G1 X107.191 Y120.242 E28.25403
G1 X105.511 Y119.62 E28.3434
G1 X105.429 Y119.586 E28.34783
G1 X103.871 Y118.669 E28.43803
G1 X103.809 Y118.629 E28.44171
G1 X102.427 Y117.443 E28.53256
G1 X102.396 Y117.413 E28.53472
G1 X101.238 Y115.992 E28.62617
G1 X101.202 Y115.944 E28.62916
G1 X100.321 Y114.355 E28.71981
G1 X100.29 Y114.294 E28.72322
G1 X99.702 Y112.57 E28.8141
G1 X99.687 Y112.519 E28.81675
G1 X99.651 Y112.265 E28.82955
G1 X99.554 Y111.633 E28.86145
G1 X100.802 Y111.633 E28.92371
G1 X101.009 Y112.696 E28.97774
G1 X101.054 Y112.841 E28.98531
G1 X101.782 Y114.546 E29.07781
G1 X101.864 Y114.677 E29.08552
G1 X102.919 Y116.168 E29.17664
G1 X103.023 Y116.28 E29.18427
G1 X104.378 Y117.523 E29.276
G1 X104.505 Y117.61 E29.28368
G1 X106.089 Y118.54 E29.37532
G1 X106.231 Y118.598 E29.38298
G1 X107.977 Y119.173 E29.47469
G1 X108.127 Y119.199 E29.48228
G1 X109.952 Y119.394 E29.57385
G1 X110.106 Y119.388 E29.58154
G1 X111.932 Y119.194 E29.67315
G1 X112.082 Y119.155 E29.68088
G1 X113.823 Y118.581 E29.77234
G1 X113.96 Y118.513 E29.77997
G1 X115.546 Y117.582 E29.87172
G1 X115.666 Y117.485 E29.87942
G1 X117.021 Y116.241 E29.97119
G1 X117.117 Y116.12 E29.9789
G1 X118.177 Y114.623 E30.07041
G1 X118.252 Y114.47 E30.07891
G1 X118.961 Y112.811 E30.16892
G1 X119.002 Y112.655 E30.17697
G1 X119.2 Y111.633 E30.2289
G1 X120.45 Y111.633 E30.29127
G1 X120.315 Y112.519 E30.33598
G1 X120.293 Y112.59 E30.33969
G1 X119.709 Y114.302 E30.42993
G1 X118.797 Y115.948 E30.52381
