;FLAVOR:Marlin
;TIME:917
;Filament used: 0.673692m
;Layer height: 0.2
;MINX:93.607
;MINY:93.628
;MINZ:0.25
;MAXX:126.395
;MAXY:126.384
;MAXZ:11.05
;Generated with Cura_SteamEngine 4.12.1
M140 S60
M105
M190 S60
M104 S200
M105
M109 S200
M82 ;absolute extrusion mode
; Ender 3 Custom Start G-code
G92 E0 ; Reset Extruder
G28 ; Home all axes
G1 Z2.0 F3000 ; Move Z Axis up little to prevent scratching of Heat Bed
G1 X0.1 Y20 Z0.3 F5000.0 ; Move to start position
G1 X0.1 Y200.0 Z0.3 F1500.0 E15 ; Draw the first line
G1 X0.4 Y200.0 Z0.3 F5000.0 ; Move to side a little
G1 X0.4 Y20 Z0.3 F1500.0 E30 ; Draw the second line
G92 E0 ; Reset Extruder
G1 Z2.0 F3000 ; Move Z Axis up little to prevent scratching of Heat Bed
G1 X5 Y20 Z0.3 F5000.0 ; Move over to prevent blob squish
G92 E0
G92 E0
G1 F1500 E-6.5
;LAYER_COUNT:55
;LAYER:0
M107
G1 F300 Z0.75
G0 F3000 X98.513 Y98.297 Z0.75
;TYPE:SKIRT
G1 F300 Z0.25
G1 F1500 E0
G1 F1200 X99.012 Y97.857 E0.04149
G1 X99.442 Y97.487 E0.07687
G1 X100.259 Y96.81 E0.14304
G1 X100.77 Y96.446 E0.18216
G1 X101.355 Y96.091 E0.22484
G1 X101.985 Y95.72 E0.27043
G1 X102.632 Y95.35 E0.31691
G1 X103.067 Y95.133 E0.34723
G1 X103.311 Y95.028 E0.36379
G1 X103.48 Y94.96 E0.37515
G1 X103.757 Y94.854 E0.39365
G1 X104.657 Y94.52 E0.45352
G1 X105.051 Y94.38 E0.47959
G1 X105.197 Y94.331 E0.4892
G1 X105.628 Y94.195 E0.51738
G1 X106.098 Y94.076 E0.54762
G1 X106.619 Y93.974 E0.58072
G1 X107.494 Y93.817 E0.63616
G1 X107.911 Y93.749 E0.66251
G1 X108.475 Y93.673 E0.698
G1 X108.984 Y93.636 E0.72983
G1 X109.611 Y93.629 E0.76893
G1 X110.35 Y93.628 E0.81502
G1 X111.128 Y93.64 E0.86354
G1 X111.62 Y93.675 E0.8943
G1 X111.982 Y93.726 E0.9171
G1 X112.389 Y93.795 E0.94284
G1 X113.292 Y93.957 E1.00006
G1 X113.944 Y94.084 E1.04148
G1 X114.537 Y94.244 E1.07978
G1 X115.653 Y94.634 E1.15351
G1 X116.099 Y94.8 E1.18319
G1 X116.709 Y95.037 E1.224
G1 X117.266 Y95.301 E1.26244
G1 X118.256 Y95.86 E1.33334
G1 X118.678 Y96.11 E1.36393
G1 X119.1 Y96.366 E1.39471
G1 X119.337 Y96.52 E1.41234
G1 X119.671 Y96.754 E1.43777
G1 X119.967 Y96.981 E1.46103
G1 X120.294 Y97.256 E1.48768
G1 X121.018 Y97.88 E1.54728
G1 X121.533 Y98.337 E1.59022
G1 X121.93 Y98.738 E1.62541
G1 X122.188 Y99.036 E1.64999
G1 X122.957 Y99.978 E1.72583
G1 X123.407 Y100.549 E1.77117
G1 X123.669 Y100.92 E1.79949
G1 X123.782 Y101.102 E1.81285
G1 X123.924 Y101.342 E1.83024
G1 X124.49 Y102.36 E1.90288
G1 X124.85 Y103.034 E1.95053
G1 X124.97 Y103.277 E1.96743
G1 X125 Y103.343 E1.97195
G1 X125.134 Y103.674 E1.99422
G1 X125.435 Y104.517 E2.05004
G1 X125.644 Y105.137 E2.09085
G1 X125.846 Y105.764 E2.13193
G1 X125.992 Y106.36 E2.1702
G1 X126.179 Y107.457 E2.23959
G1 X126.254 Y107.96 E2.27131
G1 X126.356 Y108.713 E2.3187
G1 X126.395 Y109.305 E2.3557
G1 X126.393 Y109.868 E2.39081
G1 X126.394 Y110.728 E2.44444
G1 X126.367 Y111.211 E2.47461
G1 X126.334 Y111.495 E2.49244
G1 X126.283 Y111.862 E2.51554
G1 X126.138 Y112.829 E2.57652
G1 X126.032 Y113.473 E2.61722
G1 X125.918 Y113.975 E2.64933
G1 X125.741 Y114.578 E2.68852
G1 X125.661 Y114.827 E2.70483
G1 X125.378 Y115.659 E2.75963
G1 X125.157 Y116.283 E2.80092
G1 X124.906 Y116.856 E2.83993
G1 X124.413 Y117.787 E2.90563
G1 X124.139 Y118.284 E2.94102
G1 X123.804 Y118.871 E2.98317
G1 X123.456 Y119.389 E3.02209
G1 X122.828 Y120.191 E3.08561
G1 X122.453 Y120.651 E3.12262
G1 X122.027 Y121.163 E3.16416
G1 X121.584 Y121.622 E3.20394
G1 X120.793 Y122.327 E3.27002
G1 X120.384 Y122.677 E3.30359
G1 X119.851 Y123.123 E3.34693
G1 X119.345 Y123.487 E3.3858
G1 X118.465 Y124.028 E3.45022
G1 X117.96 Y124.325 E3.48676
G1 X117.376 Y124.658 E3.52868
G1 X116.816 Y124.926 E3.5674
G1 X115.826 Y125.313 E3.63369
G1 X115.296 Y125.509 E3.66893
G1 X114.668 Y125.732 E3.71049
G1 X114.066 Y125.898 E3.74943
G1 X113.063 Y126.096 E3.81319
G1 X112.592 Y126.18 E3.84302
G1 X111.775 Y126.314 E3.89465
G1 X111.148 Y126.37 E3.93391
G1 X110.28 Y126.384 E3.98805
G1 X109.751 Y126.384 E4.02104
G1 X108.843 Y126.369 E4.07767
G1 X108.224 Y126.314 E4.11643
G1 X107.368 Y126.175 E4.17051
G1 X106.778 Y126.068 E4.2079
G1 X106.01 Y125.919 E4.25669
G1 X105.53 Y125.797 E4.28758
G1 X105.194 Y125.687 E4.30963
G1 X104.759 Y125.531 E4.33844
G1 X104.192 Y125.32 E4.37617
G1 X103.13 Y124.901 E4.44737
G1 X102.577 Y124.636 E4.48561
G1 X102.132 Y124.382 E4.51757
G1 X101.305 Y123.892 E4.57751
G1 X100.7 Y123.52 E4.6218
G1 X100.198 Y123.159 E4.66037
G1 X99.485 Y122.564 E4.71828
G1 X99.032 Y122.174 E4.75556
G1 X98.484 Y121.689 E4.80119
G1 X98.263 Y121.48 E4.82016
G1 X98.054 Y121.255 E4.83931
G1 X97.782 Y120.938 E4.86536
G1 X97.099 Y120.098 E4.93288
G1 X96.58 Y119.438 E4.98524
G1 X96.229 Y118.918 E5.02436
G1 X95.76 Y118.097 E5.08333
G1 X95.513 Y117.647 E5.11534
G1 X95.115 Y116.896 E5.16835
G1 X94.865 Y116.329 E5.20699
G1 X94.583 Y115.539 E5.2593
G1 X94.332 Y114.793 E5.30839
G1 X94.128 Y114.156 E5.3501
G1 X93.993 Y113.62 E5.38457
G1 X93.944 Y113.344 E5.40205
G1 X93.886 Y112.981 E5.42498
G1 X93.738 Y111.988 E5.48759
G1 X93.645 Y111.296 E5.53113
G1 X93.607 Y110.707 E5.56794
G1 X93.609 Y109.273 E5.65737
G1 X93.634 Y108.806 E5.68653
G1 X93.668 Y108.511 E5.70505
G1 X93.717 Y108.164 E5.7269
G1 X93.865 Y107.182 E5.78884
G1 X93.985 Y106.462 E5.83436
G1 X94.13 Y105.861 E5.87291
G1 X94.422 Y104.947 E5.93275
G1 X94.619 Y104.369 E5.97083
G1 X94.845 Y103.73 E6.0131
G1 X95.097 Y103.154 E6.05231
G1 X95.605 Y102.196 E6.11993
G1 X95.818 Y101.811 E6.14737
G1 X96.208 Y101.128 E6.19642
G1 X96.558 Y100.607 E6.23556
G1 X97.186 Y99.807 E6.29899
G1 X97.406 Y99.537 E6.32071
G1 X98.08 Y98.74 E6.3858
G1 X98.513 Y98.297 E6.42443
G1 F1500 E-0.07557
G1 F300 Z0.75
;MESH:arandela.stl
G0 F3000 X110.989 Y121.184 Z0.75
;TYPE:WALL-INNER
G1 F300 Z0.25
G1 F1500 E6.42443
G1 F1200 X108.999 Y121.184 E6.54853
G1 X107.04 Y120.832 E6.67266
G1 X105.18 Y120.141 E6.7964
G1 X103.462 Y119.127 E6.92081
G1 X101.958 Y117.833 E7.04454
G1 X100.692 Y116.272 E7.16988
G1 X99.731 Y114.528 E7.29406
G1 X99.093 Y112.643 E7.41816
G1 X98.942 Y111.634 E7.48179
G1 X99.947 Y111.634 E7.54446
G1 X100.148 Y112.761 E7.61585
G1 X100.196 Y112.905 E7.62532
G1 X100.891 Y114.666 E7.74338
G1 X100.969 Y114.795 E7.75279
G1 X101.993 Y116.375 E7.8702
G1 X102.094 Y116.487 E7.87961
G1 X103.412 Y117.834 E7.99713
G1 X103.534 Y117.925 E8.00663
G1 X105.109 Y118.996 E8.1254
G1 X106.985 Y119.785 E8.25232
G1 X108.982 Y120.189 E8.37938
G1 X111.02 Y120.189 E8.50648
G1 X113.015 Y119.786 E8.63341
G1 X114.892 Y118.997 E8.76038
G1 X116.467 Y117.926 E8.87916
G1 X116.589 Y117.835 E8.88865
G1 X117.908 Y116.488 E9.00622
G1 X118.009 Y116.376 E9.01563
G1 X119.033 Y114.796 E9.13304
G1 X119.111 Y114.667 E9.14245
G1 X119.816 Y112.882 E9.26213
G1 X119.878 Y112.62 E9.27892
G1 X120.055 Y111.634 E9.34139
G1 X121.059 Y111.634 E9.40401
G1 X120.907 Y112.653 E9.46826
G1 X120.273 Y114.529 E9.59175
G1 X119.306 Y116.278 E9.71638
G1 X118.05 Y117.828 E9.8408
G1 X116.539 Y119.127 E9.96506
G1 X114.823 Y120.139 E10.0893
G1 X112.95 Y120.834 E10.21389
G1 X110.989 Y121.184 E10.33811
G0 F3000 X111.044 Y121.784
;TYPE:WALL-OUTER
G1 F1200 X108.943 Y121.784 E10.46914
G1 X106.919 Y121.42 E10.59738
G1 X106.875 Y121.41 E10.6002
G1 X104.947 Y120.694 E10.72846
G1 X104.909 Y120.678 E10.73103
G1 X103.138 Y119.633 E10.85927
G1 X103.102 Y119.609 E10.86197
G1 X101.536 Y118.261 E10.99082
G1 X101.519 Y118.244 E10.99232
G1 X100.193 Y116.61 E11.12355
G1 X99.18 Y114.772 E11.25443
G1 X98.508 Y112.784 E11.3853
G1 X98.246 Y111.034 E11.49565
G1 X100.449 Y111.034 E11.63304
G1 X100.731 Y112.613 E11.73307
G1 X100.76 Y112.7 E11.73879
G1 X101.431 Y114.399 E11.8527
G1 X101.478 Y114.477 E11.85838
G1 X102.471 Y116.009 E11.97224
G1 X102.532 Y116.077 E11.97793
G1 X103.808 Y117.381 E12.09171
G1 X103.882 Y117.436 E12.09746
G1 X105.397 Y118.466 E12.21171
G1 X107.163 Y119.209 E12.33119
G1 X109.042 Y119.589 E12.45074
G1 X110.96 Y119.589 E12.57036
G1 X112.838 Y119.21 E12.68983
G1 X114.604 Y118.467 E12.80932
G1 X116.119 Y117.437 E12.92356
G1 X116.193 Y117.382 E12.92931
G1 X117.47 Y116.078 E13.04313
G1 X117.531 Y116.01 E13.04883
G1 X118.524 Y114.478 E13.16268
G1 X118.571 Y114.4 E13.16836
G1 X119.242 Y112.702 E13.28222
G1 X119.29 Y112.498 E13.29529
G1 X119.553 Y111.034 E13.38805
G1 X121.755 Y111.034 E13.52538
G1 X121.492 Y112.794 E13.63635
G1 X120.823 Y114.773 E13.76663
G1 X119.805 Y116.616 E13.89793
G1 X118.482 Y118.247 E14.0289
G1 X116.888 Y119.618 E14.16002
G1 X115.081 Y120.684 E14.29086
G1 X113.11 Y121.415 E14.42196
G1 X111.044 Y121.784 E14.55284
G0 F3000 X110.986 Y121.127
G0 X110.979 Y121.084
G0 X106.974 Y119.823
G0 X105.279 Y119.111
G0 X101.013 Y116.287
;TYPE:SKIN
G1 F1200 X103.738 Y119.011 E14.79312
G0 F3000 X104.33 Y118.755
G1 F1200 X105.623 Y120.048 E14.90716
G0 F3000 X106.093 Y119.67
G1 F1200 X106.974 Y120.551 E14.98486
G0 F3000 X107.381 Y120.109
G1 F1200 X108.039 Y120.767 E15.04289
G0 F3000 X108.444 Y120.324
G1 F1200 X109.064 Y120.943 E15.09752
G0 F3000 X109.397 Y120.428
G1 F1200 X109.912 Y120.943 E15.14294
G0 F3000 X110.245 Y120.428
G1 F1200 X110.761 Y120.943 E15.18841
G0 F3000 X111.085 Y120.419
G1 F1200 X111.512 Y120.845 E15.22602
G0 F3000 X111.792 Y120.277
G1 F1200 X112.232 Y120.717 E15.26483
G0 F3000 X112.498 Y120.135
G1 F1200 X112.943 Y120.58 E15.30407
G0 F3000 X113.186 Y119.974
G1 F1200 X113.562 Y120.35 E15.33724
G0 F3000 X114.18 Y120.119
G1 F1200 X113.784 Y119.723 E15.37216
G0 F3000 X114.381 Y119.472
G1 F1200 X114.788 Y119.879 E15.40806
G0 F3000 X115.322 Y119.564
G1 F1200 X114.978 Y119.221 E15.43835
G0 F3000 X115.487 Y118.881
G1 F1200 X115.856 Y119.25 E15.47089
G0 F3000 X116.39 Y118.936
G1 F1200 X115.992 Y118.537 E15.50604
G0 F3000 X116.497 Y118.195
G1 F1200 X116.847 Y118.544 E15.53686
G0 F3000 X117.304 Y118.152
G1 F1200 X116.954 Y117.803 E15.56769
G0 F3000 X117.374 Y117.374
G1 F1200 X117.76 Y117.76 E15.60173
G0 F3000 X118.159 Y117.311
G1 F1200 X117.794 Y116.945 E15.63397
G0 F3000 X118.207 Y116.509
G1 F1200 X118.539 Y116.842 E15.66329
G0 F3000 X118.919 Y116.373
G1 F1200 X118.54 Y115.995 E15.69667
G0 F3000 X118.874 Y115.48
G1 F1200 X119.259 Y115.865 E15.73063
G0 F3000 X119.561 Y115.319
G1 F1200 X119.207 Y114.964 E15.76189
G0 F3000 X119.478 Y114.387
G1 F1200 X119.863 Y114.772 E15.79585
G0 F3000 X120.133 Y114.193
G1 F1200 X119.718 Y113.778 E15.83245
G0 F3000 X119.958 Y113.17
G1 F1200 X120.348 Y113.559 E15.8668
G0 F3000 X120.562 Y112.925
G1 F1200 X120.141 Y112.504 E15.90393
G0 F3000 X120.726 Y112.241
G1 F1200 X120.359 Y111.874 E15.9363
G0 F3000 X119.066 Y114.817
G0 X117.937 Y116.515
G0 X116.49 Y117.958
G0 X114.911 Y119.032
G0 X113.026 Y119.824
G0 X111.023 Y120.228
G0 X108.979 Y120.228
G0 X106.974 Y119.823
G0 X105.09 Y119.031
G0 X103.557 Y117.981
G0 X101.261 Y115.686
G1 F1200 X99.923 Y114.348 E16.0543
G0 F3000 X100.335 Y113.912
G1 F1200 X99.488 Y113.064 E16.12904
G0 F3000 X99.876 Y112.603
G1 F1200 X99.232 Y111.96 E16.1858
G0 F3000 X99.59 Y112.234
G1 F1500 E9.6858
G1 F300 Z0.75
G0 F3000 X99.638 Y112.231 Z0.75
G0 X99.948 Y108.379
;TYPE:WALL-INNER
G1 F300 Z0.25
G1 F1500 E16.1858
G1 F1200 X98.942 Y108.379 E16.24853
G1 X99.096 Y107.357 E16.31299
G1 X99.733 Y105.478 E16.43672
G1 X100.701 Y103.726 E16.56155
G1 X101.951 Y102.188 E16.68514
G1 X103.468 Y100.882 E16.80998
G1 X105.181 Y99.871 E16.93402
G1 X107.043 Y99.181 E17.05786
G1 X109.005 Y98.829 E17.18217
G1 X110.996 Y98.828 E17.30633
G1 X112.964 Y99.181 E17.43102
G1 X114.828 Y99.874 E17.55504
G1 X116.535 Y100.881 E17.67863
G1 X118.05 Y102.186 E17.80333
G1 X119.306 Y103.732 E17.92755
G1 X120.269 Y105.476 E18.05179
G1 X120.908 Y107.362 E18.17597
G1 X121.06 Y108.379 E18.2401
G1 X120.056 Y108.379 E18.30271
G1 X119.855 Y107.253 E18.37404
G1 X119.807 Y107.109 E18.38351
G1 X119.113 Y105.353 E18.50126
G1 X119.037 Y105.223 E18.51065
G1 X118.01 Y103.639 E18.62838
G1 X117.909 Y103.527 E18.63779
G1 X116.59 Y102.179 E18.7554
G1 X116.468 Y102.088 E18.76489
G1 X114.893 Y101.018 E18.88364
G1 X113.017 Y100.228 E19.01058
G1 X111.02 Y99.825 E19.13763
G1 X108.982 Y99.825 E19.26472
G1 X106.987 Y100.227 E19.39164
G1 X105.11 Y101.017 E19.51864
G1 X103.535 Y102.087 E19.63738
G1 X103.413 Y102.178 E19.64687
G1 X102.095 Y103.526 E19.76444
G1 X101.994 Y103.638 E19.77385
G1 X100.97 Y105.218 E19.89127
G1 X100.892 Y105.347 E19.90067
G1 X100.187 Y107.132 E20.02035
G1 X100.125 Y107.394 E20.03714
G1 X99.948 Y108.379 E20.09955
G0 F3000 X100.449 Y108.979
;TYPE:WALL-OUTER
G1 F1200 X98.246 Y108.979 E20.23694
G1 X98.511 Y107.214 E20.34824
G1 X99.167 Y105.278 E20.47572
G1 X99.185 Y105.23 E20.47892
G1 X100.203 Y103.388 E20.61016
G1 X101.493 Y101.801 E20.73771
G1 X101.532 Y101.757 E20.74137
G1 X103.08 Y100.424 E20.86877
G1 X103.128 Y100.386 E20.87259
G1 X104.884 Y99.35 E20.99974
G1 X104.936 Y99.323 E21.00339
G1 X106.845 Y98.614 E21.13039
G1 X106.905 Y98.596 E21.13429
G1 X108.921 Y98.234 E21.26203
G1 X108.966 Y98.229 E21.26485
G1 X111.027 Y98.228 E21.39338
G1 X111.068 Y98.231 E21.39594
G1 X113.088 Y98.593 E21.52392
G1 X113.138 Y98.606 E21.52714
G1 X115.056 Y99.318 E21.65473
G1 X115.109 Y99.343 E21.65839
G1 X116.87 Y100.382 E21.7859
G1 X116.906 Y100.409 E21.7887
G1 X118.467 Y101.753 E21.91716
G1 X118.496 Y101.783 E21.91976
G1 X119.793 Y103.38 E22.04807
G1 X119.815 Y103.413 E22.05054
G1 X120.82 Y105.233 E22.18019
G1 X121.485 Y107.195 E22.30939
G1 X121.496 Y107.238 E22.31215
G1 X121.756 Y108.979 E22.42193
G1 X119.553 Y108.979 E22.55932
G1 X119.272 Y107.401 E22.65927
G1 X119.243 Y107.314 E22.66499
G1 X118.572 Y105.616 E22.77885
G1 X118.526 Y105.537 E22.78455
G1 X117.532 Y104.005 E22.89844
G1 X117.471 Y103.937 E22.90414
G1 X116.194 Y102.632 E23.018
G1 X116.12 Y102.577 E23.02375
G1 X114.605 Y101.548 E23.13797
G1 X112.839 Y100.804 E23.25747
G1 X110.96 Y100.425 E23.37701
G1 X109.042 Y100.425 E23.49662
G1 X107.164 Y100.803 E23.61609
G1 X105.398 Y101.547 E23.7356
G1 X103.883 Y102.576 E23.84981
G1 X103.809 Y102.631 E23.85556
G1 X102.533 Y103.936 E23.96938
G1 X102.472 Y104.004 E23.97508
G1 X101.479 Y105.536 E24.08893
G1 X101.432 Y105.614 E24.09461
G1 X100.761 Y107.312 E24.20847
G1 X100.713 Y107.516 E24.22154
G1 X100.449 Y108.979 E24.31425
G0 F3000 X99.884 Y108.303
G0 X99.277 Y107.762
;TYPE:SKIN
G1 F1200 X99.652 Y108.137 E24.34732
G0 F3000 X99.861 Y107.498
G1 F1200 X99.442 Y107.079 E24.38428
G0 F3000 X100.046 Y106.834
G1 F1200 X99.657 Y106.445 E24.41858
G0 F3000 X100.286 Y106.226
G1 F1200 X99.871 Y105.811 E24.45518
G0 F3000 X100.141 Y105.233
G1 F1200 X100.527 Y105.618 E24.48918
G0 F3000 X100.798 Y105.041
G1 F1200 X100.443 Y104.686 E24.52049
G0 F3000 X100.745 Y104.139
G1 F1200 X101.132 Y104.526 E24.55462
G0 F3000 X101.465 Y104.011
G1 F1200 X101.085 Y103.631 E24.58814
G0 F3000 X101.466 Y103.163
G1 F1200 X101.799 Y103.496 E24.61751
G0 F3000 X102.213 Y103.062
G1 F1200 X101.846 Y102.695 E24.64987
G0 F3000 X102.248 Y102.248
G1 F1200 X102.633 Y102.633 E24.68383
G0 F3000 X103.053 Y102.204
G1 F1200 X102.704 Y101.855 E24.71461
G0 F3000 X103.159 Y101.462
G1 F1200 X103.51 Y101.813 E24.74556
G0 F3000 X104.015 Y101.469
G1 F1200 X103.617 Y101.071 E24.78067
G0 F3000 X104.151 Y100.757
G1 F1200 X104.52 Y101.126 E24.81321
G0 F3000 X105.03 Y100.788
G1 F1200 X104.684 Y100.441 E24.84377
G0 F3000 X105.218 Y100.127
G1 F1200 X105.628 Y100.537 E24.87993
G0 F3000 X106.225 Y100.285
G1 F1200 X105.827 Y99.887 E24.91503
G0 F3000 X106.445 Y99.657
G1 F1200 X106.822 Y100.034 E24.94828
G0 F3000 X107.065 Y99.428
G1 F1200 X107.512 Y99.875 E24.9877
G0 F3000 X107.777 Y99.292
G1 F1200 X108.218 Y99.733 E25.0266
G0 F3000 X108.497 Y99.163
G1 F1200 X108.924 Y99.591 E25.0643
G0 F3000 X109.251 Y99.069
G1 F1200 X109.767 Y99.584 E25.10976
G0 F3000 X110.099 Y99.068
G1 F1200 X110.615 Y99.584 E25.15527
G0 F3000 X110.947 Y99.068
G1 F1200 X111.57 Y99.69 E25.21017
G0 F3000 X111.975 Y99.247
G1 F1200 X112.632 Y99.904 E25.26812
G0 F3000 X113.043 Y99.466
G1 F1200 X113.926 Y100.35 E25.34604
G0 F3000 X114.395 Y99.97
G1 F1200 X115.708 Y101.283 E25.46183
G0 F3000 X116.286 Y101.013
G1 F1200 X118.957 Y103.684 E25.6974
G0 F3000 X118.722 Y104.297
G1 F1200 X120.073 Y105.648 E25.81655
G0 F3000 X119.659 Y106.082
G1 F1200 X120.509 Y106.932 E25.89152
G0 F3000 X120.122 Y107.394
G1 F1200 X120.766 Y108.038 E25.94831
G0 F3000 X120.41 Y107.779
G1 F1500 E19.44831
G1 F300 Z0.75
;MESH:NONMESH
G0 F3000 X120.364 Y107.781 Z0.75
